;FLAVOR:Marlin
;TIME:3193
;Filament used: 1.33748m
;Layer height: 0.2
;MINX:87.463
;MINY:71.915
;MINZ:0.2
;MAXX:132.558
;MAXY:149.319
;MAXZ:17
;Generated with Cura_SteamEngine 4.8.0
M140 S60
M105
M190 S60
M104 S200
M105
M109 S200
M82 ;absolute extrusion mode
; Ender 3 Custom Start G-code
G92 E0 ; Reset Extruder
G28 ; Home all axes
G1 Z2.0 F3000 ; Move Z Axis up little to prevent scratching of Heat Bed
G1 X0.1 Y20 Z0.3 F5000.0 ; Move to start position
G1 X0.1 Y200.0 Z0.3 F1500.0 E15 ; Draw the first line
G1 X0.4 Y200.0 Z0.3 F5000.0 ; Move to side a little
G1 X0.4 Y20 Z0.3 F1500.0 E30 ; Draw the second line
G92 E0 ; Reset Extruder
G1 Z2.0 F3000 ; Move Z Axis up little to prevent scratching of Heat Bed
G1 X5 Y20 Z0.3 F5000.0 ; Move over to prevent blob squish
G92 E0
G92 E0
G1 F1500 E-6.5
;LAYER_COUNT:85
;LAYER:0
M107
G0 F6000 X98.928 Y76.209 Z0.2
;TYPE:SKIRT
G1 F1500 E0
G1 F1200 X99.739 Y75.294 E0.04067
G1 X99.85 Y75.182 E0.04591
G1 X100.538 Y74.544 E0.07712
G1 X101.278 Y73.968 E0.10831
G1 X102.064 Y73.457 E0.13949
G1 X102.891 Y73.014 E0.17069
G1 X103.753 Y72.644 E0.20189
G1 X104.643 Y72.348 E0.23309
G1 X105.555 Y72.129 E0.26429
G1 X106.482 Y71.989 E0.29547
G1 X107.292 Y71.931 E0.32248
G1 X107.675 Y71.921 E0.33522
G1 X108.219 Y71.915 E0.35331
G1 X110.709 Y71.917 E0.43613
G1 X111.381 Y71.927 E0.45849
G1 X112.317 Y71.981 E0.48967
G1 X113.245 Y72.115 E0.52085
G1 X114.159 Y72.327 E0.55206
G1 X115.051 Y72.616 E0.58325
G1 X115.915 Y72.98 E0.61443
G1 X116.746 Y73.416 E0.64564
G1 X117.536 Y73.922 E0.67685
G1 X118.28 Y74.493 E0.70804
G1 X119.062 Y75.215 E0.74344
G1 X119.177 Y75.332 E0.7489
G1 X119.805 Y76.028 E0.78007
G1 X120.372 Y76.776 E0.81129
G1 X120.873 Y77.569 E0.84249
G1 X121.305 Y78.401 E0.87367
G1 X121.664 Y79.268 E0.90488
G1 X121.948 Y80.161 E0.93605
G1 X122.155 Y81.076 E0.96725
G1 X122.283 Y82.005 E0.99844
G1 X122.324 Y82.623 E1.01904
G1 X122.336 Y83.035 E1.03275
G1 X122.342 Y83.543 E1.04965
G1 X122.342 Y87.443 E1.17936
G1 X122.379 Y90.051 E1.26611
G1 X122.485 Y92.553 E1.34941
G1 X122.663 Y95.067 E1.43323
G1 X122.911 Y97.565 E1.51672
G1 X123.229 Y100.054 E1.60018
G1 X123.623 Y102.563 E1.68465
G1 X124.082 Y105.029 E1.76808
G1 X124.609 Y107.48 E1.85146
G1 X125.212 Y109.94 E1.93571
G1 X125.882 Y112.374 E2.01967
G1 X126.61 Y114.753 E2.10242
G1 X127.421 Y117.156 E2.18677
G1 X128.295 Y119.526 E2.27079
G1 X129.231 Y121.859 E2.3544
G1 X130.239 Y124.175 E2.43841
G1 X131.096 Y126.019 E2.50604
G1 X131.443 Y126.821 E2.5351
G1 X131.627 Y127.299 E2.55214
G1 X131.926 Y128.188 E2.58334
G1 X132.065 Y128.715 E2.60146
G1 X132.169 Y129.154 E2.61647
G1 X132.325 Y129.938 E2.64306
G1 X132.395 Y130.372 E2.65768
G1 X132.518 Y131.516 E2.69595
G1 X132.536 Y131.841 E2.70677
G1 X132.552 Y132.341 E2.72341
G1 X132.558 Y132.956 E2.74387
G1 X132.558 Y133.598 E2.76522
G1 X132.538 Y134.808 E2.80547
G1 X132.502 Y135.527 E2.82941
G1 X132.467 Y135.947 E2.84343
G1 X132.384 Y136.662 E2.86737
G1 X132.328 Y137.036 E2.87995
G1 X132.162 Y137.902 E2.90928
G1 X132.094 Y138.194 E2.91925
G1 X131.924 Y138.837 E2.94137
G1 X131.821 Y139.183 E2.95338
G1 X131.571 Y139.926 E2.97945
G1 X131.387 Y140.414 E2.9968
G1 X131.076 Y141.154 E3.0235
G1 X131.051 Y141.208 E3.02547
G1 X130.731 Y141.845 E3.04918
G1 X130.46 Y142.343 E3.06804
G1 X130.174 Y142.838 E3.08706
G1 X130.12 Y142.926 E3.09049
G1 X129.583 Y143.72 E3.12237
G1 X129.226 Y144.202 E3.14232
G1 X128.623 Y144.946 E3.17417
G1 X128.515 Y145.068 E3.17959
G1 X128.145 Y145.466 E3.19767
G1 X127.798 Y145.821 E3.21418
G1 X127.115 Y146.463 E3.24535
G1 X126.379 Y147.045 E3.27656
G1 X125.789 Y147.443 E3.30023
G1 X125.576 Y147.577 E3.3086
G1 X124.762 Y148.042 E3.33978
G1 X123.911 Y148.436 E3.37097
G1 X123.029 Y148.756 E3.40218
G1 X121.815 Y149.064 E3.44384
G1 X121.542 Y149.117 E3.45309
G1 X120.615 Y149.257 E3.48427
G1 X119.446 Y149.319 E3.52321
G1 X119.076 Y149.318 E3.53551
G1 X116.671 Y149.281 E3.61551
G1 X114.768 Y149.3 E3.67881
G1 X113.914 Y149.318 E3.70722
G1 X112.976 Y149.297 E3.73843
G1 X112.044 Y149.197 E3.7696
G1 X111.361 Y149.072 E3.7927
G1 X111.046 Y149.004 E3.80341
G1 X110.138 Y148.768 E3.83462
G1 X109.254 Y148.454 E3.86582
G1 X108.4 Y148.067 E3.897
G1 X107.582 Y147.608 E3.9282
G1 X106.704 Y147.004 E3.96365
G1 X106.482 Y146.835 E3.97293
G1 X105.761 Y146.236 E4.0041
G1 X105.352 Y145.846 E4.0229
G1 X105.09 Y145.583 E4.03525
G1 X104.559 Y145.011 E4.0612
G1 X104.375 Y144.798 E4.07057
G1 X103.878 Y144.179 E4.09697
G1 X103.653 Y143.877 E4.1095
G1 X103.238 Y143.28 E4.13368
G1 X102.876 Y142.721 E4.15583
G1 X101.445 Y140.572 E4.2417
G1 X99.46 Y137.794 E4.35526
G1 X99.25 Y137.51 E4.36701
G1 X98.89 Y136.991 E4.38802
G1 X98.777 Y136.818 E4.39489
G1 X98.306 Y136.027 E4.42551
G1 X98.163 Y135.762 E4.43553
G1 X97.715 Y134.831 E4.46989
G1 X97.612 Y134.588 E4.47867
G1 X97.272 Y133.673 E4.51113
G1 X97.201 Y133.453 E4.51882
G1 X96.952 Y132.553 E4.54988
G1 X96.875 Y132.22 E4.56125
G1 X96.75 Y131.601 E4.58225
G1 X96.706 Y131.343 E4.59096
G1 X96.222 Y128.78 E4.67771
G1 X95.693 Y126.35 E4.76042
G1 X95.088 Y123.912 E4.84397
G1 X94.413 Y121.481 E4.92789
G1 X93.666 Y119.065 E5.012
G1 X92.857 Y116.687 E5.09554
G1 X91.979 Y114.325 E5.17935
G1 X91.044 Y112.012 E5.26233
G1 X89.559 Y108.671 E5.38394
G1 X88.792 Y107.035 E5.44403
G1 X88.501 Y106.357 E5.46857
G1 X88.385 Y106.059 E5.47921
G1 X88.083 Y105.172 E5.51037
G1 X87.921 Y104.557 E5.53153
G1 X87.82 Y104.122 E5.54638
G1 X87.677 Y103.395 E5.57102
G1 X87.611 Y102.988 E5.58474
G1 X87.5 Y102.056 E5.61595
G1 X87.471 Y101.438 E5.63653
G1 X87.463 Y101.021 E5.6504
G1 X87.473 Y100.292 E5.67465
G1 X87.492 Y99.889 E5.68807
G1 X87.576 Y98.955 E5.71926
G1 X87.668 Y98.38 E5.73863
G1 X87.746 Y97.964 E5.75271
G1 X87.928 Y97.163 E5.78003
G1 X88.04 Y96.742 E5.79452
G1 X88.319 Y95.847 E5.8257
G1 X88.526 Y95.315 E5.84468
G1 X88.729 Y94.831 E5.86214
G1 X89.128 Y93.983 E5.89331
G1 X89.43 Y93.443 E5.91389
G1 X89.773 Y92.869 E5.93613
G1 X89.97 Y92.553 E5.94851
G1 X90.436 Y91.83 E5.97712
G1 X91.837 Y89.588 E6.06506
G1 X93.094 Y87.444 E6.14772
G1 X94.314 Y85.222 E6.23203
G1 X95.466 Y82.972 E6.3161
G1 X96.546 Y80.709 E6.3995
G1 X97.351 Y78.909 E6.46508
G1 X97.481 Y78.613 E6.47584
G1 X97.894 Y77.772 E6.507
G1 X98.378 Y76.968 E6.53821
G1 X98.928 Y76.209 E6.56939
G0 F6000 X99.273 Y76.417
G1 F1200 X100.023 Y75.575 E6.60689
G1 X100.134 Y75.463 E6.61214
G1 X100.81 Y74.838 E6.64276
G1 X101.538 Y74.274 E6.67339
G1 X102.311 Y73.775 E6.70399
G1 X103.125 Y73.345 E6.73461
G1 X103.974 Y72.988 E6.76524
G1 X104.85 Y72.705 E6.79586
G1 X105.747 Y72.5 E6.82646
G1 X106.659 Y72.373 E6.85709
G1 X107.305 Y72.331 E6.87862
G1 X107.679 Y72.321 E6.89106
G1 X108.219 Y72.315 E6.90903
G1 X110.703 Y72.317 E6.99164
G1 X111.375 Y72.327 E7.014
G1 X112.294 Y72.381 E7.04462
G1 X113.205 Y72.514 E7.07524
G1 X114.101 Y72.726 E7.10586
G1 X114.975 Y73.015 E7.13648
G1 X115.821 Y73.378 E7.1671
G1 X116.632 Y73.813 E7.19771
G1 X117.402 Y74.318 E7.22833
G1 X118.126 Y74.887 E7.25896
G1 X118.777 Y75.496 E7.28861
G1 X118.892 Y75.613 E7.29407
G1 X119.508 Y76.297 E7.32468
G1 X120.062 Y77.031 E7.35527
G1 X120.551 Y77.812 E7.38592
G1 X120.97 Y78.631 E7.41651
G1 X121.317 Y79.484 E7.44714
G1 X121.588 Y80.364 E7.47777
G1 X121.782 Y81.264 E7.50839
G1 X121.897 Y82.178 E7.53903
G1 X121.924 Y82.639 E7.55439
G1 X121.936 Y83.04 E7.56773
G1 X121.942 Y83.544 E7.5845
G1 X121.942 Y87.449 E7.71438
G1 X121.979 Y90.073 E7.80166
G1 X122.086 Y92.582 E7.88519
G1 X122.264 Y95.098 E7.96908
G1 X122.514 Y97.622 E8.05344
G1 X122.835 Y100.13 E8.13753
G1 X123.222 Y102.592 E8.22043
G1 X123.691 Y105.114 E8.30575
G1 X124.223 Y107.588 E8.38991
G1 X124.823 Y110.036 E8.47374
G1 X125.49 Y112.459 E8.55733
G1 X126.235 Y114.893 E8.64199
G1 X127.053 Y117.318 E8.72711
G1 X127.908 Y119.635 E8.80926
G1 X128.87 Y122.032 E8.89516
G1 X129.868 Y124.326 E8.97837
G1 X130.691 Y126.099 E9.04338
G1 X130.736 Y126.192 E9.04682
G1 X131.069 Y126.965 E9.07481
G1 X131.253 Y127.443 E9.09185
G1 X131.547 Y128.316 E9.12249
G1 X131.676 Y128.807 E9.13937
G1 X131.78 Y129.246 E9.15438
G1 X131.93 Y130.002 E9.18001
G1 X132 Y130.436 E9.19463
G1 X132.119 Y131.538 E9.2315
G1 X132.137 Y131.863 E9.24233
G1 X132.152 Y132.344 E9.25833
G1 X132.158 Y132.956 E9.27869
G1 X132.158 Y133.598 E9.30004
G1 X132.138 Y134.801 E9.34006
G1 X132.103 Y135.493 E9.3631
G1 X132.068 Y135.913 E9.37712
G1 X131.988 Y136.603 E9.40022
G1 X131.932 Y136.977 E9.4128
G1 X131.773 Y137.811 E9.44104
G1 X131.705 Y138.103 E9.45101
G1 X131.54 Y138.723 E9.47235
G1 X131.437 Y139.069 E9.48436
G1 X131.196 Y139.785 E9.50949
G1 X131.012 Y140.273 E9.52683
G1 X130.713 Y140.986 E9.55255
G1 X130.688 Y141.04 E9.55453
G1 X130.38 Y141.654 E9.57737
G1 X130.109 Y142.152 E9.59623
G1 X129.833 Y142.629 E9.61456
G1 X129.779 Y142.717 E9.61799
G1 X129.262 Y143.482 E9.6487
G1 X128.905 Y143.964 E9.66865
G1 X128.324 Y144.681 E9.69935
G1 X128.216 Y144.803 E9.70477
G1 X127.859 Y145.186 E9.72218
G1 X127.512 Y145.541 E9.73869
G1 X126.841 Y146.171 E9.76931
G1 X126.117 Y146.74 E9.79993
G1 X125.576 Y147.104 E9.82162
G1 X125.363 Y147.238 E9.82999
G1 X124.564 Y147.694 E9.86059
G1 X123.727 Y148.079 E9.89123
G1 X122.861 Y148.39 E9.92183
G1 X121.739 Y148.672 E9.96031
G1 X121.466 Y148.725 E9.96956
G1 X120.556 Y148.861 E10.00017
G1 X119.446 Y148.919 E10.03713
G1 X119.083 Y148.918 E10.04921
G1 X116.674 Y148.881 E10.12934
G1 X114.759 Y148.9 E10.19304
G1 X113.905 Y148.918 E10.22145
G1 X112.985 Y148.897 E10.25206
G1 X112.07 Y148.797 E10.28267
G1 X111.445 Y148.681 E10.30381
G1 X111.13 Y148.613 E10.31453
G1 X110.24 Y148.38 E10.34513
G1 X109.373 Y148.071 E10.37574
G1 X108.536 Y147.687 E10.40637
G1 X107.735 Y147.232 E10.43701
G1 X106.946 Y146.686 E10.46892
G1 X106.724 Y146.517 E10.4782
G1 X106.017 Y145.928 E10.50881
G1 X105.635 Y145.564 E10.52636
G1 X105.373 Y145.301 E10.53871
G1 X104.862 Y144.749 E10.56373
G1 X104.678 Y144.536 E10.57309
G1 X104.199 Y143.94 E10.59852
G1 X103.974 Y143.638 E10.61104
G1 X103.574 Y143.063 E10.63434
G1 X103.201 Y142.487 E10.65717
G1 X101.776 Y140.347 E10.74268
G1 X99.795 Y137.575 E10.856
G1 X99.572 Y137.273 E10.86849
G1 X99.224 Y136.773 E10.88875
G1 X99.111 Y136.6 E10.89562
G1 X98.658 Y135.837 E10.92513
G1 X98.515 Y135.572 E10.93515
G1 X98.084 Y134.675 E10.96825
G1 X97.981 Y134.432 E10.97703
G1 X97.652 Y133.551 E11.0083
G1 X97.581 Y133.331 E11.01599
G1 X97.341 Y132.463 E11.04595
G1 X97.264 Y132.13 E11.05731
G1 X97.144 Y131.533 E11.07757
G1 X97.09 Y131.219 E11.08817
G1 X96.62 Y128.726 E11.17254
G1 X96.084 Y126.266 E11.25628
G1 X95.47 Y123.788 E11.34119
G1 X94.795 Y121.362 E11.42495
G1 X94.052 Y118.955 E11.50873
G1 X93.235 Y116.555 E11.59306
G1 X92.358 Y114.197 E11.67673
G1 X91.413 Y111.857 E11.76067
G1 X89.927 Y108.516 E11.88228
G1 X89.154 Y106.866 E11.94289
G1 X88.874 Y106.212 E11.96655
G1 X88.758 Y105.914 E11.97719
G1 X88.462 Y105.042 E12.00781
G1 X88.311 Y104.466 E12.02762
G1 X88.21 Y104.031 E12.04247
G1 X88.072 Y103.331 E12.0662
G1 X88.006 Y102.924 E12.07992
G1 X87.898 Y102.009 E12.11056
G1 X87.871 Y101.43 E12.12984
G1 X87.863 Y101.013 E12.14371
G1 X87.873 Y100.311 E12.16706
G1 X87.892 Y99.908 E12.18048
G1 X87.975 Y98.991 E12.21111
G1 X88.062 Y98.454 E12.2292
G1 X88.14 Y98.038 E12.24328
G1 X88.314 Y97.266 E12.2696
G1 X88.426 Y96.845 E12.28409
G1 X88.701 Y95.966 E12.31472
G1 X88.895 Y95.47 E12.33243
G1 X89.098 Y94.986 E12.34989
G1 X89.491 Y94.153 E12.38052
G1 X89.774 Y93.649 E12.39975
G1 X90.117 Y93.075 E12.42199
G1 X90.306 Y92.769 E12.43395
G1 X90.83 Y91.956 E12.46612
G1 X92.163 Y89.822 E12.54981
G1 X93.447 Y87.632 E12.63424
G1 X94.663 Y85.418 E12.71826
G1 X95.826 Y83.147 E12.80312
G1 X96.907 Y80.882 E12.88659
G1 X97.716 Y79.072 E12.95254
G1 X97.847 Y78.774 E12.96336
G1 X98.253 Y77.948 E12.99397
G1 X98.73 Y77.161 E13.02458
G1 X99.273 Y76.417 E13.05522
G0 F6000 X99.618 Y76.627
G1 F1200 X100.307 Y75.857 E13.08958
G1 X100.418 Y75.745 E13.09483
G1 X101.082 Y75.132 E13.12489
G1 X101.797 Y74.581 E13.15491
G1 X102.558 Y74.094 E13.18496
G1 X103.359 Y73.678 E13.21498
G1 X104.194 Y73.333 E13.24503
G1 X105.056 Y73.064 E13.27506
G1 X105.938 Y72.872 E13.30508
G1 X106.834 Y72.759 E13.33512
G1 X107.319 Y72.731 E13.35128
G1 X107.684 Y72.721 E13.36342
G1 X108.218 Y72.715 E13.38119
G1 X110.697 Y72.717 E13.46364
G1 X111.369 Y72.727 E13.48599
G1 X112.27 Y72.781 E13.51601
G1 X113.164 Y72.913 E13.54607
G1 X114.042 Y73.125 E13.57611
G1 X114.897 Y73.413 E13.60612
G1 X115.724 Y73.776 E13.63616
G1 X116.516 Y74.211 E13.66621
G1 X117.266 Y74.713 E13.69623
G1 X117.969 Y75.281 E13.72629
G1 X118.491 Y75.776 E13.75022
G1 X118.606 Y75.893 E13.75567
G1 X119.21 Y76.564 E13.7857
G1 X119.752 Y77.287 E13.81575
G1 X120.229 Y78.054 E13.8458
G1 X120.635 Y78.861 E13.87584
G1 X120.969 Y79.7 E13.90588
G1 X121.226 Y80.565 E13.93589
G1 X121.407 Y81.45 E13.96593
G1 X121.525 Y82.654 E14.00617
G1 X121.536 Y83.045 E14.01918
G1 X121.542 Y83.545 E14.03581
G1 X121.542 Y87.455 E14.16586
G1 X121.579 Y90.06 E14.25251
G1 X121.688 Y92.626 E14.33793
G1 X121.866 Y95.133 E14.42153
G1 X122.114 Y97.642 E14.50538
G1 X122.442 Y100.205 E14.59132
G1 X122.833 Y102.69 E14.67499
G1 X123.294 Y105.173 E14.75899
G1 X123.828 Y107.654 E14.8434
G1 X124.435 Y110.132 E14.92825
G1 X125.12 Y112.619 E15.01405
G1 X125.846 Y114.991 E15.09656
G1 X126.671 Y117.436 E15.18238
G1 X127.549 Y119.816 E15.26676
G1 X128.49 Y122.161 E15.3508
G1 X129.51 Y124.507 E15.43588
G1 X130.311 Y126.23 E15.49908
G1 X130.375 Y126.364 E15.50402
G1 X130.696 Y127.109 E15.531
G1 X130.88 Y127.587 E15.54803
G1 X131.167 Y128.443 E15.57806
G1 X131.286 Y128.9 E15.59377
G1 X131.39 Y129.339 E15.60877
G1 X131.535 Y130.066 E15.63343
G1 X131.605 Y130.5 E15.64805
G1 X131.719 Y131.56 E15.68351
G1 X131.737 Y131.885 E15.69434
G1 X131.753 Y132.348 E15.70974
G1 X131.758 Y132.855 E15.72661
G1 X131.758 Y133.598 E15.75132
G1 X131.738 Y134.794 E15.79111
G1 X131.705 Y135.46 E15.81328
G1 X131.67 Y135.88 E15.8273
G1 X131.593 Y136.543 E15.8495
G1 X131.537 Y136.917 E15.86208
G1 X131.383 Y137.72 E15.88927
G1 X131.315 Y138.012 E15.89925
G1 X131.157 Y138.609 E15.91979
G1 X131.054 Y138.955 E15.93179
G1 X130.822 Y139.644 E15.95597
G1 X130.638 Y140.132 E15.97332
G1 X130.35 Y140.818 E15.99806
G1 X130.325 Y140.872 E16.00004
G1 X130.028 Y141.462 E16.02201
G1 X129.757 Y141.96 E16.04087
G1 X129.492 Y142.42 E16.05853
G1 X129.438 Y142.508 E16.06196
G1 X128.941 Y143.244 E16.0915
G1 X128.584 Y143.726 E16.11145
G1 X128.024 Y144.416 E16.14101
G1 X127.916 Y144.538 E16.14643
G1 X127.573 Y144.907 E16.16318
G1 X127.226 Y145.262 E16.17969
G1 X126.567 Y145.879 E16.20972
G1 X125.856 Y146.436 E16.23976
G1 X125.363 Y146.766 E16.25949
G1 X125.15 Y146.9 E16.26786
G1 X124.366 Y147.346 E16.29786
G1 X123.544 Y147.722 E16.32792
G1 X122.693 Y148.023 E16.35795
G1 X121.663 Y148.279 E16.39325
G1 X121.39 Y148.332 E16.4025
G1 X120.497 Y148.465 E16.43253
G1 X119.446 Y148.519 E16.46753
G1 X119.089 Y148.518 E16.4794
G1 X116.676 Y148.481 E16.55967
G1 X114.751 Y148.5 E16.6237
G1 X113.897 Y148.518 E16.65211
G1 X112.994 Y148.497 E16.68215
G1 X112.097 Y148.396 E16.71217
G1 X111.53 Y148.29 E16.73136
G1 X111.215 Y148.222 E16.74208
G1 X110.341 Y147.993 E16.77213
G1 X109.491 Y147.687 E16.80217
G1 X108.672 Y147.307 E16.8322
G1 X107.89 Y146.856 E16.86223
G1 X107.189 Y146.368 E16.89064
G1 X106.967 Y146.199 E16.89992
G1 X106.273 Y145.621 E16.92996
G1 X105.919 Y145.282 E16.94626
G1 X105.657 Y145.019 E16.95861
G1 X105.164 Y144.488 E16.98271
G1 X104.98 Y144.275 E16.99207
G1 X104.52 Y143.701 E17.01653
G1 X104.295 Y143.399 E17.02906
G1 X103.91 Y142.846 E17.05147
G1 X103.526 Y142.253 E17.07497
G1 X102.111 Y140.128 E17.15988
G1 X100.1 Y137.313 E17.27495
G1 X99.894 Y137.035 E17.28645
G1 X99.559 Y136.554 E17.30595
G1 X99.446 Y136.381 E17.31282
G1 X99.01 Y135.647 E17.34122
G1 X98.867 Y135.382 E17.35123
G1 X98.452 Y134.519 E17.38308
G1 X98.349 Y134.276 E17.39186
G1 X98.033 Y133.428 E17.42196
G1 X97.962 Y133.208 E17.42965
G1 X97.731 Y132.373 E17.45846
G1 X97.654 Y132.04 E17.46983
G1 X97.539 Y131.465 E17.48934
G1 X97.494 Y131.202 E17.49821
G1 X97.017 Y128.673 E17.58381
G1 X96.469 Y126.157 E17.66945
G1 X95.857 Y123.691 E17.75396
G1 X95.177 Y121.242 E17.8385
G1 X94.436 Y118.845 E17.92194
G1 X93.606 Y116.403 E18.00773
G1 X92.728 Y114.044 E18.09145
