;FLAVOR:Marlin
;TIME:3216
;Filament used: 1.04207m
;Layer height: 0.12
;MINX:78.461
;MINY:90.935
;MINZ:0.12
;MAXX:141.54
;MAXY:125.572
;MAXZ:14.16
;Generated with Cura_SteamEngine 4.8.0
M140 S60
M105
M190 S60
M104 S200
M105
M109 S200
M82 ;absolute extrusion mode
; Ender 3 Custom Start G-code
G92 E0 ; Reset Extruder
G28 ; Home all axes
G1 Z2.0 F3000 ; Move Z Axis up little to prevent scratching of Heat Bed
G1 X0.1 Y20 Z0.3 F5000.0 ; Move to start position
G1 X0.1 Y200.0 Z0.3 F1500.0 E15 ; Draw the first line
G1 X0.4 Y200.0 Z0.3 F5000.0 ; Move to side a little
G1 X0.4 Y20 Z0.3 F1500.0 E30 ; Draw the second line
G92 E0 ; Reset Extruder
G1 Z2.0 F3000 ; Move Z Axis up little to prevent scratching of Heat Bed
G1 X5 Y20 Z0.3 F5000.0 ; Move over to prevent blob squish
G92 E0
G92 E0
G1 F1500 E-6.5
;LAYER_COUNT:118
;LAYER:0
M107
G0 F6000 X85.148 Y93.92 Z0.12
;TYPE:SKIRT
G1 F1500 E0
G1 F1200 X85.876 Y93.329 E0.01871
G1 X86.652 Y92.802 E0.03743
G1 X87.47 Y92.343 E0.05615
G1 X88.323 Y91.955 E0.07485
G1 X89.207 Y91.641 E0.09357
G1 X90.115 Y91.404 E0.1123
G1 X91.039 Y91.245 E0.13101
G1 X92.292 Y91.156 E0.15608
G1 X92.514 Y91.153 E0.16051
G1 X93.328 Y91.172 E0.17676
G1 X96.008 Y91.334 E0.23034
G1 X98.504 Y91.416 E0.28017
G1 X101.022 Y91.425 E0.33042
G1 X103.554 Y91.364 E0.38097
G1 X106.057 Y91.232 E0.43099
G1 X108.828 Y91.005 E0.48647
G1 X109.044 Y90.984 E0.4908
G1 X109.981 Y90.935 E0.50953
G1 X110.918 Y90.965 E0.52823
G1 X111.85 Y91.076 E0.54696
G1 X112.768 Y91.265 E0.56567
G1 X113.667 Y91.532 E0.58438
G1 X114.54 Y91.875 E0.6031
G1 X115.061 Y92.122 E0.61461
G1 X115.696 Y92.444 E0.62882
G1 X118.089 Y93.615 E0.68198
G1 X120.363 Y94.649 E0.73183
G1 X122.691 Y95.63 E0.78225
G1 X125.053 Y96.548 E0.83282
G1 X127.404 Y97.383 E0.88261
G1 X129.778 Y98.153 E0.93241
G1 X130.484 Y98.36 E0.94709
G1 X131.711 Y98.735 E0.9727
G1 X132.933 Y99.189 E0.99871
G1 X133.237 Y99.323 E1.00534
G1 X133.651 Y99.514 E1.01444
G1 X134.483 Y99.948 E1.03317
G1 X135.043 Y100.293 E1.04629
G1 X135.313 Y100.471 E1.05275
G1 X135.613 Y100.676 E1.06
G1 X135.767 Y100.785 E1.06376
G1 X136.509 Y101.359 E1.08249
G1 X136.935 Y101.739 E1.09388
G1 X137.191 Y101.979 E1.10088
G1 X137.478 Y102.257 E1.10885
G1 X137.601 Y102.381 E1.11234
G1 X138.232 Y103.075 E1.13106
G1 X138.608 Y103.55 E1.14315
G1 X138.843 Y103.865 E1.15099
G1 X139.046 Y104.146 E1.15791
G1 X139.12 Y104.252 E1.16049
G1 X139.623 Y105.044 E1.17921
G1 X139.933 Y105.619 E1.19225
G1 X140.116 Y105.984 E1.2004
G1 X140.293 Y106.352 E1.20854
G1 X140.653 Y107.218 E1.22726
G1 X140.881 Y107.91 E1.2418
G1 X141.022 Y108.391 E1.2518
G1 X141.247 Y109.301 E1.27051
G1 X141.402 Y110.304 E1.29076
G1 X141.464 Y110.878 E1.30228
G1 X141.527 Y111.891 E1.32254
G1 X141.54 Y112.843 E1.34154
G1 X141.539 Y113.987 E1.36437
G1 X141.529 Y114.714 E1.37888
G1 X141.476 Y115.651 E1.39761
G1 X141.344 Y116.579 E1.41631
G1 X141.133 Y117.493 E1.43503
G1 X140.844 Y118.385 E1.45374
G1 X140.481 Y119.25 E1.47246
G1 X140.046 Y120.081 E1.49118
G1 X139.541 Y120.871 E1.50989
G1 X138.971 Y121.616 E1.52861
G1 X138.34 Y122.31 E1.54733
G1 X137.651 Y122.947 E1.56606
G1 X136.911 Y123.523 E1.58477
G1 X136.125 Y124.034 E1.60348
G1 X135.298 Y124.476 E1.62219
G1 X134.436 Y124.846 E1.64091
G1 X133.546 Y125.141 E1.65962
G1 X132.634 Y125.36 E1.67834
G1 X131.707 Y125.5 E1.69705
G1 X130.839 Y125.559 E1.71441
G1 X130.519 Y125.568 E1.7208
G1 X130.21 Y125.572 E1.72697
G1 X90.006 Y125.572 E2.52928
G1 X89.325 Y125.562 E2.54287
G1 X88.389 Y125.508 E2.56158
G1 X87.461 Y125.375 E2.58029
G1 X86.547 Y125.163 E2.59902
G1 X85.655 Y124.874 E2.61773
G1 X84.791 Y124.51 E2.63644
G1 X83.96 Y124.074 E2.65517
G1 X83.17 Y123.568 E2.67389
G1 X82.426 Y122.998 E2.69259
G1 X81.733 Y122.366 E2.71131
G1 X81.293 Y121.902 E2.72407
G1 X80.696 Y121.178 E2.7428
G1 X80.162 Y120.407 E2.76151
G1 X79.697 Y119.593 E2.78022
G1 X79.302 Y118.742 E2.79894
G1 X78.981 Y117.861 E2.81765
G1 X78.737 Y116.955 E2.83638
G1 X78.57 Y116.032 E2.8551
G1 X78.473 Y114.845 E2.87886
G1 X78.465 Y114.554 E2.88467
G1 X78.461 Y114.25 E2.89074
G1 X78.463 Y109.549 E2.98455
G1 X78.472 Y108.935 E2.99681
G1 X78.526 Y107.998 E3.01554
G1 X78.659 Y107.07 E3.03425
G1 X78.871 Y106.156 E3.05297
G1 X79.281 Y104.952 E3.07835
G1 X79.634 Y104.084 E3.09705
G1 X82.052 Y98.447 E3.21946
G1 X82.395 Y97.674 E3.23633
G1 X82.813 Y96.835 E3.25504
G1 X83.301 Y96.034 E3.27376
G1 X83.856 Y95.278 E3.29247
G1 X84.473 Y94.571 E3.3112
G1 X85.148 Y93.92 E3.32991
G0 F6000 X85.477 Y94.164
G1 F1200 X86.196 Y93.59 E3.34827
G1 X86.963 Y93.08 E3.36666
G1 X87.771 Y92.639 E3.38503
G1 X88.615 Y92.27 E3.40341
G1 X89.487 Y91.975 E3.42178
G1 X90.381 Y91.757 E3.44014
G1 X91.291 Y91.618 E3.45851
G1 X92.298 Y91.556 E3.47865
G1 X92.52 Y91.553 E3.48308
G1 X93.304 Y91.571 E3.49873
G1 X96.007 Y91.735 E3.55277
G1 X98.49 Y91.816 E3.60234
G1 X101.029 Y91.825 E3.65301
G1 X103.584 Y91.763 E3.70402
G1 X106.077 Y91.632 E3.75384
G1 X108.828 Y91.406 E3.80892
G1 X109.082 Y91.382 E3.81401
G1 X110.002 Y91.334 E3.8324
G1 X110.922 Y91.367 E3.85077
G1 X111.836 Y91.479 E3.86914
G1 X112.736 Y91.67 E3.8875
G1 X113.617 Y91.938 E3.90588
G1 X114.88 Y92.479 E3.9333
G1 X115.547 Y92.817 E3.94822
G1 X117.898 Y93.968 E4.00046
G1 X120.207 Y95.018 E4.05108
G1 X122.509 Y95.988 E4.10093
G1 X124.941 Y96.933 E4.153
G1 X127.251 Y97.754 E4.20192
G1 X129.679 Y98.541 E4.25286
G1 X130.367 Y98.743 E4.26717
G1 X131.594 Y99.118 E4.29277
G1 X132.771 Y99.555 E4.31783
G1 X133.075 Y99.689 E4.32445
G1 X133.482 Y99.877 E4.3334
G1 X134.298 Y100.303 E4.35177
G1 X134.822 Y100.627 E4.36407
G1 X135.092 Y100.805 E4.37052
G1 X135.382 Y101.003 E4.37753
G1 X135.536 Y101.112 E4.38129
G1 X136.264 Y101.676 E4.39967
G1 X136.662 Y102.031 E4.41031
G1 X136.918 Y102.271 E4.41732
G1 X137.194 Y102.539 E4.42499
G1 X137.317 Y102.663 E4.42848
G1 X137.936 Y103.344 E4.44684
G1 X138.287 Y103.79 E4.45817
G1 X138.522 Y104.105 E4.46601
G1 X138.718 Y104.375 E4.47267
G1 X138.792 Y104.481 E4.47525
G1 X139.285 Y105.258 E4.49361
G1 X139.576 Y105.798 E4.50586
G1 X139.759 Y106.163 E4.514
G1 X139.931 Y106.521 E4.52193
G1 X140.283 Y107.372 E4.54031
G1 X140.497 Y108.022 E4.55396
G1 X140.638 Y108.503 E4.56397
G1 X140.858 Y109.397 E4.58234
G1 X141.005 Y110.347 E4.60152
G1 X141.067 Y110.921 E4.61305
G1 X141.127 Y111.897 E4.63256
G1 X141.14 Y112.843 E4.65144
G1 X141.139 Y113.982 E4.67417
G1 X141.129 Y114.709 E4.68868
G1 X141.076 Y115.628 E4.70705
G1 X140.944 Y116.539 E4.72542
G1 X140.733 Y117.435 E4.74379
G1 X140.446 Y118.31 E4.76217
G1 X140.083 Y119.156 E4.78054
G1 X139.649 Y119.968 E4.79891
G1 X139.145 Y120.739 E4.81729
G1 X138.577 Y121.463 E4.83566
G1 X137.948 Y122.135 E4.85403
G1 X137.263 Y122.75 E4.8724
G1 X136.527 Y123.303 E4.89077
G1 X135.746 Y123.791 E4.90915
G1 X134.926 Y124.209 E4.92751
G1 X134.072 Y124.554 E4.94589
G1 X133.192 Y124.823 E4.96426
G1 X132.291 Y125.016 E4.98265
G1 X131.378 Y125.129 E5.001
G1 X130.828 Y125.159 E5.012
G1 X130.508 Y125.168 E5.01839
G1 X130.21 Y125.172 E5.02433
G1 X90.012 Y125.172 E5.82653
G1 X89.331 Y125.162 E5.84012
G1 X88.412 Y125.108 E5.85849
G1 X87.501 Y124.975 E5.87686
G1 X86.605 Y124.764 E5.89523
G1 X85.731 Y124.475 E5.9136
G1 X84.885 Y124.112 E5.93197
G1 X84.074 Y123.677 E5.95034
G1 X83.303 Y123.173 E5.96872
G1 X82.58 Y122.603 E5.98709
G1 X81.608 Y121.654 E6.0142
G1 X81.004 Y120.924 E6.03311
G1 X80.483 Y120.165 E6.05148
G1 X80.029 Y119.364 E6.06986
G1 X79.646 Y118.527 E6.08823
G1 X79.337 Y117.659 E6.10661
G1 X79.105 Y116.769 E6.12497
G1 X78.951 Y115.861 E6.14335
G1 X78.873 Y114.834 E6.1639
G1 X78.865 Y114.543 E6.16971
G1 X78.861 Y114.25 E6.17556
G1 X78.863 Y109.555 E6.26925
G1 X78.872 Y108.941 E6.28151
G1 X78.926 Y108.022 E6.29988
G1 X79.059 Y107.111 E6.31825
G1 X79.27 Y106.215 E6.33662
G1 X79.652 Y105.103 E6.36008
G1 X80.083 Y104.047 E6.38284
G1 X82.479 Y98.467 E6.50403
G1 X82.76 Y97.837 E6.5178
G1 X83.171 Y97.013 E6.53617
G1 X83.653 Y96.228 E6.55456
G1 X84.2 Y95.488 E6.57292
G1 X84.81 Y94.798 E6.5913
G1 X85.477 Y94.164 E6.60966
G0 F6000 X85.805 Y94.409
G1 F1200 X86.516 Y93.852 E6.62769
G1 X87.273 Y93.361 E6.64569
G1 X88.072 Y92.938 E6.66374
G1 X88.904 Y92.588 E6.68175
G1 X89.764 Y92.313 E6.69977
G1 X90.645 Y92.114 E6.71779
G1 X91.54 Y91.995 E6.73581
G1 X92.303 Y91.956 E6.75106
G1 X92.525 Y91.953 E6.75549
G1 X93.28 Y91.971 E6.77056
G1 X95.934 Y92.132 E6.82362
G1 X98.51 Y92.216 E6.87505
G1 X101.038 Y92.225 E6.9255
G1 X103.579 Y92.163 E6.97622
G1 X106.097 Y92.031 E7.02654
G1 X108.897 Y91.801 E7.08261
G1 X109.12 Y91.78 E7.08708
G1 X110.022 Y91.734 E7.1051
G1 X110.925 Y91.768 E7.12314
G1 X111.821 Y91.882 E7.14116
G1 X112.703 Y92.075 E7.15918
G1 X113.565 Y92.345 E7.1772
G1 X114.699 Y92.835 E7.20186
G1 X115.398 Y93.189 E7.21749
G1 X117.735 Y94.333 E7.26942
G1 X120.035 Y95.379 E7.31984
G1 X122.375 Y96.365 E7.37051
G1 X124.799 Y97.307 E7.42241
G1 X127.131 Y98.136 E7.4718
G1 X129.549 Y98.92 E7.52253
G1 X130.25 Y99.125 E7.5371
G1 X131.477 Y99.5 E7.56271
G1 X132.61 Y99.922 E7.58684
G1 X133.124 Y100.151 E7.59807
G1 X133.312 Y100.239 E7.60221
G1 X134.112 Y100.658 E7.62023
G1 X134.602 Y100.961 E7.63173
G1 X134.872 Y101.139 E7.63818
G1 X135.151 Y101.329 E7.64492
G1 X135.305 Y101.438 E7.64868
G1 X136.018 Y101.992 E7.6667
G1 X136.388 Y102.323 E7.67661
G1 X136.644 Y102.563 E7.68361
G1 X136.91 Y102.821 E7.69101
G1 X137.033 Y102.945 E7.69449
G1 X137.64 Y103.613 E7.7125
G1 X137.967 Y104.029 E7.72306
G1 X138.202 Y104.344 E7.73091
G1 X138.39 Y104.604 E7.73731
G1 X138.464 Y104.71 E7.73989
G1 X138.947 Y105.473 E7.75791
G1 X139.218 Y105.977 E7.76933
G1 X139.401 Y106.342 E7.77748
G1 X139.568 Y106.691 E7.7852
G1 X139.913 Y107.525 E7.80321
G1 X140.113 Y108.135 E7.81602
G1 X140.254 Y108.616 E7.82602
G1 X140.47 Y109.493 E7.84405
G1 X140.607 Y110.39 E7.86216
G1 X140.669 Y110.964 E7.87368
G1 X140.727 Y111.903 E7.89245
G1 X140.74 Y112.843 E7.91121
G1 X140.739 Y113.976 E7.93382
G1 X140.729 Y114.703 E7.94833
G1 X140.677 Y115.605 E7.96636
G1 X140.545 Y116.498 E7.98438
G1 X140.334 Y117.377 E8.00242
G1 X140.047 Y118.233 E8.02043
G1 X139.685 Y119.06 E8.03845
G1 X139.251 Y119.852 E8.05647
G1 X138.749 Y120.603 E8.0745
G1 X138.183 Y121.306 E8.09251
G1 X137.556 Y121.957 E8.11055
G1 X136.875 Y122.549 E8.12855
G1 X136.144 Y123.079 E8.14657
G1 X135.368 Y123.542 E8.16461
G1 X134.555 Y123.935 E8.18263
G1 X133.71 Y124.255 E8.20066
G1 X132.841 Y124.498 E8.21866
G1 X131.953 Y124.663 E8.23669
G1 X130.817 Y124.759 E8.25944
G1 X130.497 Y124.768 E8.26583
G1 X130.21 Y124.772 E8.27156
G1 X90.018 Y124.772 E9.07363
G1 X89.337 Y124.762 E9.08722
G1 X88.436 Y124.709 E9.10523
G1 X87.542 Y124.576 E9.12327
G1 X86.664 Y124.365 E9.14129
G1 X85.808 Y124.077 E9.15932
G1 X84.981 Y123.714 E9.17734
G1 X84.19 Y123.279 E9.19535
G1 X83.439 Y122.777 E9.21338
G1 X82.737 Y122.21 E9.23139
G1 X81.905 Y121.386 E9.25476
G1 X81.314 Y120.669 E9.2733
G1 X80.804 Y119.924 E9.29132
G1 X80.362 Y119.136 E9.30935
G1 X79.991 Y118.313 E9.32736
G1 X79.695 Y117.459 E9.3454
G1 X79.475 Y116.583 E9.36342
G1 X79.334 Y115.691 E9.38145
G1 X79.273 Y114.823 E9.39881
G1 X79.265 Y114.532 E9.40462
G1 X79.261 Y114.25 E9.41025
G1 X79.263 Y109.561 E9.50382
G1 X79.272 Y108.947 E9.51608
G1 X79.325 Y108.045 E9.53411
G1 X79.458 Y107.152 E9.55212
G1 X79.669 Y106.274 E9.57015
G1 X80.022 Y105.253 E9.5917
G1 X80.375 Y104.385 E9.6104
G1 X82.787 Y98.762 E9.7325
G1 X83.126 Y98 E9.74915
G1 X83.53 Y97.192 E9.76718
G1 X84.004 Y96.424 E9.78519
G1 X84.544 Y95.7 E9.80321
G1 X85.146 Y95.026 E9.82124
G1 X85.805 Y94.409 E9.83926
G1 F1500 E3.33926
;MESH:Fan_Mod_New_Version_Ender-3_v3.stl
G0 F6000 X88.884 Y108.732
G0 X89.881 Y109.159
G0 X90.46 Y113.573
;TYPE:WALL-INNER
G1 F1500 E9.83926
G1 F1200 X90.46 Y113.374 E9.84323
G1 X90.462 Y109.281 E9.92491
G1 X92.994 Y103.381 E10.05304
G1 X93.704 Y103.667 E10.06831
G1 X94.053 Y103.774 E10.0756
G1 X94.243 Y103.836 E10.07959
G1 X95.036 Y104.067 E10.09607
G1 X95.831 Y104.268 E10.11243
G1 X96.708 Y104.451 E10.13031
G1 X97.502 Y104.586 E10.14638
G1 X98.406 Y104.707 E10.16458
G1 X98.459 Y104.715 E10.16565
G1 X98.523 Y104.707 E10.16694
G1 X99.077 Y104.752 E10.17803
G1 X99.361 Y104.793 E10.18376
G1 X99.698 Y104.813 E10.1905
G1 X100.279 Y104.842 E10.20211
G1 X101.107 Y104.854 E10.21863
G1 X101.985 Y104.838 E10.23616
G1 X102.881 Y104.784 E10.25407
G1 X103.461 Y104.728 E10.2657
G1 X103.837 Y104.699 E10.27322
G1 X104.694 Y104.573 E10.29051
G1 X105.373 Y104.458 E10.30425
G1 X106.213 Y104.283 E10.32137
G1 X107.019 Y104.082 E10.33795
G1 X107.817 Y103.853 E10.35452
G1 X108.277 Y103.702 E10.36418
G1 X108.742 Y103.568 E10.37384
G1 X109.766 Y103.142 E10.39597
G1 X112.971 Y107.324 E10.50112
G1 X113.341 Y107.893 E10.51466
G1 X113.847 Y108.51 E10.53059
G1 X114.466 Y109.053 E10.54702
G1 X114.493 Y109.069 E10.54764
G1 X115.165 Y109.49 E10.56347
G1 X115.926 Y109.812 E10.57996
G1 X116.733 Y110.006 E10.59652
G1 X117.518 Y110.07 E10.61224
G1 X127.412 Y110.07 E10.80969
G1 X127.827 Y110.104 E10.818
G1 X128.178 Y110.196 E10.82524
G1 X128.511 Y110.347 E10.83253
G1 X128.798 Y110.544 E10.83948
G1 X129.062 Y110.801 E10.84683
G1 X129.262 Y111.08 E10.85368
G1 X129.413 Y111.393 E10.86062
G1 X129.507 Y111.737 E10.86774
G1 X129.54 Y112.111 E10.87523
G1 X129.54 Y113.572 E10.90438
G1 X90.659 Y113.573 E11.6803
G1 X90.46 Y113.573 E11.68287
G0 F6000 X90.06 Y113.973
G1 F1200 X90.06 Y113.774 E11.68684
G1 X90.062 Y109.197 E11.77818
G1 X92.779 Y102.866 E11.91566
G1 X93.115 Y102.999 E11.92287
G1 X93.838 Y103.29 E11.93843
G1 X94.177 Y103.394 E11.9455
G1 X94.361 Y103.454 E11.94936
G1 X95.141 Y103.681 E11.96558
G1 X95.921 Y103.878 E11.98163
G1 X96.783 Y104.058 E11.9992
G1 X97.562 Y104.191 E12.01497
G1 X98.46 Y104.312 E12.03306
G1 X98.515 Y104.305 E12.03416
G1 X99.118 Y104.354 E12.04624
G1 X99.402 Y104.395 E12.05196
G1 X99.72 Y104.414 E12.05832
G1 X100.292 Y104.442 E12.06975
G1 X101.106 Y104.454 E12.08599
G1 X101.969 Y104.438 E12.10322
G1 X102.85 Y104.385 E12.12083
G1 X103.43 Y104.329 E12.13246
G1 X103.793 Y104.301 E12.13973
G1 X104.632 Y104.178 E12.15665
G1 X105.299 Y104.065 E12.17015
G1 X106.124 Y103.893 E12.18697
G1 X106.915 Y103.696 E12.20323
G1 X107.699 Y103.471 E12.21951
G1 X108.152 Y103.322 E12.22903
G1 X108.609 Y103.19 E12.23852
G1 X109.896 Y102.655 E12.26633
G1 X113.287 Y107.081 E12.3776
G1 X113.307 Y107.106 E12.37824
G1 X113.664 Y107.657 E12.39134
G1 X114.135 Y108.231 E12.40616
G1 X114.705 Y108.731 E12.42129
G1 X115.35 Y109.134 E12.43647
G1 X116.052 Y109.431 E12.45168
G1 X116.796 Y109.61 E12.46695
G1 X117.534 Y109.67 E12.48173
G1 X127.433 Y109.67 E12.67927
G1 X127.892 Y109.708 E12.68847
G1 X128.313 Y109.818 E12.69715
G1 X128.704 Y109.996 E12.70572
G1 X128.735 Y110.017 E12.70647
G1 X129.056 Y110.236 E12.71422
G1 X129.365 Y110.537 E12.72283
G1 X129.609 Y110.877 E12.73118
G1 X129.789 Y111.252 E12.73949
G1 X129.902 Y111.662 E12.74797
G1 X129.94 Y112.099 E12.75673
G1 X129.94 Y113.972 E12.7941
G1 X90.259 Y113.973 E13.58598
G1 X90.06 Y113.973 E13.58855
G0 F6000 X89.66 Y114.373
;TYPE:WALL-OUTER
G1 F1200 X89.662 Y109.113 E13.69352
G1 X92.564 Y102.351 E13.84036
G1 X93.265 Y102.628 E13.85541
G1 X93.972 Y102.913 E13.87062
G1 X94.302 Y103.014 E13.87751
G1 X94.479 Y103.072 E13.88122
G1 X95.246 Y103.295 E13.89716
G1 X96.011 Y103.488 E13.91291
G1 X96.858 Y103.665 E13.93018
G1 X97.623 Y103.796 E13.94566
G1 X98.461 Y103.909 E13.96254
G1 X98.593 Y103.892 E13.96519
G1 X98.876 Y103.91 E13.97085
G1 X98.876 Y103.933 E13.97131
G1 X99.158 Y103.956 E13.97696
G1 X99.443 Y103.997 E13.9827
G1 X99.742 Y104.015 E13.98868
G1 X100.305 Y104.042 E13.99993
G1 X101.105 Y104.054 E14.0159
G1 X101.953 Y104.038 E14.03282
G1 X102.819 Y103.986 E14.05014
G1 X103.399 Y103.93 E14.06176
G1 X103.749 Y103.903 E14.06877
G1 X104.57 Y103.783 E14.08533
G1 X105.225 Y103.672 E14.09859
G1 X106.035 Y103.503 E14.1151
G1 X106.812 Y103.31 E14.13108
G1 X107.581 Y103.089 E14.14704
G1 X108.027 Y102.942 E14.15641
G1 X108.476 Y102.812 E14.16574
G1 X110.027 Y102.168 E14.19926
G1 X113.632 Y106.873 E14.31754
G1 X113.987 Y107.421 E14.33057
G1 X114.423 Y107.952 E14.34428
G1 X114.944 Y108.409 E14.35811
G1 X115.535 Y108.778 E14.37202
G1 X116.178 Y109.05 E14.38595
G1 X116.859 Y109.214 E14.39993
G1 X117.55 Y109.27 E14.41376
G1 X127.454 Y109.27 E14.61141
G1 X127.957 Y109.312 E14.62148
