;FLAVOR:Marlin
;TIME:3293
;Filament used: 1.84072m
;Layer height: 0.2
;MINX:79.811
;MINY:79.83
;MINZ:0.2
;MAXX:140.181
;MAXY:140.166
;MAXZ:21
;Generated with Cura_SteamEngine 4.8.0
M140 S60
M105
M190 S60
M104 S200
M105
M109 S200
M82 ;absolute extrusion mode
; Ender 3 Custom Start G-code
G92 E0 ; Reset Extruder
G28 ; Home all axes
G1 Z2.0 F3000 ; Move Z Axis up little to prevent scratching of Heat Bed
G1 X0.1 Y20 Z0.3 F5000.0 ; Move to start position
G1 X0.1 Y200.0 Z0.3 F1500.0 E15 ; Draw the first line
G1 X0.4 Y200.0 Z0.3 F5000.0 ; Move to side a little
G1 X0.4 Y20 Z0.3 F1500.0 E30 ; Draw the second line
G92 E0 ; Reset Extruder
G1 Z2.0 F3000 ; Move Z Axis up little to prevent scratching of Heat Bed
G1 X5 Y20 Z0.3 F5000.0 ; Move over to prevent blob squish
G92 E0
G92 E0
G1 F1500 E-6.5
;LAYER_COUNT:105
;LAYER:0
M107
G0 F6000 X88.285 Y88.537 Z0.2
;TYPE:SKIRT
G1 F1500 E0
G1 F1200 X89.021 Y87.816 E0.03427
G1 X89.267 Y87.582 E0.04556
G1 X89.621 Y87.256 E0.06157
G1 X90.64 Y86.425 E0.1053
G1 X90.683 Y86.394 E0.10706
G1 X91.681 Y85.753 E0.14651
G1 X92.002 Y85.573 E0.15875
G1 X93.884 Y84.539 E0.23018
G1 X96.845 Y82.784 E0.34466
G1 X97.779 Y82.208 E0.38115
G1 X98.985 Y81.563 E0.42664
G1 X99.147 Y81.489 E0.43257
G1 X100.373 Y81.016 E0.47627
G1 X101.006 Y80.814 E0.49837
G1 X101.311 Y80.721 E0.50898
G1 X101.711 Y80.606 E0.52282
G1 X102.051 Y80.514 E0.53454
G1 X103.023 Y80.268 E0.56788
G1 X103.358 Y80.189 E0.57933
G1 X103.776 Y80.097 E0.59357
G1 X104.368 Y79.984 E0.61361
G1 X105.298 Y79.869 E0.64478
G1 X106.294 Y79.835 E0.67793
G1 X106.827 Y79.841 E0.69566
G1 X108.77 Y79.89 E0.7603
G1 X112.548 Y79.853 E0.88596
G1 X113.328 Y79.83 E0.91192
G1 X114.525 Y79.859 E0.95174
G1 X114.714 Y79.874 E0.95805
G1 X115.645 Y79.988 E0.98924
G1 X116.197 Y80.095 E1.00795
G1 X116.891 Y80.247 E1.03158
G1 X117.219 Y80.324 E1.04278
G1 X117.589 Y80.417 E1.05547
G1 X117.927 Y80.507 E1.0671
G1 X118.845 Y80.769 E1.09886
G1 X119.195 Y80.876 E1.11103
G1 X119.683 Y81.033 E1.12808
G1 X120.563 Y81.358 E1.15928
G1 X121.411 Y81.756 E1.19044
G1 X121.917 Y82.038 E1.2097
G1 X122.366 Y82.305 E1.22708
G1 X123.998 Y83.308 E1.29079
G1 X127.025 Y85.033 E1.40667
G1 X128.06 Y85.598 E1.44589
G1 X128.96 Y86.147 E1.48095
G1 X129.078 Y86.227 E1.48569
G1 X129.831 Y86.786 E1.51689
G1 X130.336 Y87.221 E1.53905
G1 X130.837 Y87.68 E1.56165
G1 X131.067 Y87.897 E1.57217
G1 X131.338 Y88.16 E1.58473
G1 X131.6 Y88.423 E1.59708
G1 X132.357 Y89.209 E1.63337
G1 X132.627 Y89.501 E1.6466
G1 X132.945 Y89.856 E1.66245
G1 X133.713 Y90.815 E1.70332
G1 X134.389 Y91.887 E1.74547
G1 X134.732 Y92.51 E1.76912
G1 X135.424 Y93.803 E1.8179
G1 X136.654 Y95.949 E1.90017
G1 X137.284 Y96.979 E1.94033
G1 X137.863 Y97.949 E1.9779
G1 X138.285 Y98.724 E2.00725
G1 X138.354 Y98.864 E2.01244
G1 X138.732 Y99.722 E2.04363
G1 X138.977 Y100.418 E2.06817
G1 X139.23 Y101.22 E2.09614
G1 X139.332 Y101.562 E2.10801
G1 X139.404 Y101.819 E2.11688
G1 X139.497 Y102.171 E2.12899
G1 X139.776 Y103.311 E2.16803
G1 X139.867 Y103.718 E2.1819
G1 X139.959 Y104.167 E2.19714
G1 X140.108 Y105.093 E2.22834
G1 X140.178 Y106.028 E2.25952
G1 X140.181 Y106.599 E2.27852
G1 X140.162 Y107.532 E2.30955
G1 X140.127 Y108.55 E2.34343
G1 X140.111 Y111.092 E2.42798
G1 X140.146 Y112.647 E2.47972
G1 X140.155 Y113.439 E2.50606
G1 X140.124 Y114.408 E2.5383
G1 X140.105 Y114.655 E2.54654
G1 X139.946 Y115.85 E2.58664
G1 X139.867 Y116.242 E2.59994
G1 X139.739 Y116.82 E2.61963
G1 X139.667 Y117.124 E2.63002
G1 X139.493 Y117.816 E2.65375
G1 X139.415 Y118.11 E2.66387
G1 X139.329 Y118.416 E2.67444
G1 X139.241 Y118.713 E2.68474
G1 X139.107 Y119.143 E2.69973
G1 X138.832 Y119.975 E2.72887
G1 X138.498 Y120.851 E2.76005
G1 X138.091 Y121.696 E2.79125
G1 X137.795 Y122.214 E2.81109
G1 X137.499 Y122.701 E2.83005
G1 X137.267 Y123.069 E2.84451
G1 X135.976 Y125.226 E2.92812
G1 X134.499 Y127.88 E3.02915
G1 X134.374 Y128.099 E3.03753
G1 X133.794 Y129.009 E3.07342
G1 X133.677 Y129.174 E3.08015
G1 X132.992 Y130.044 E3.11698
G1 X132.765 Y130.299 E3.12834
G1 X132.325 Y130.779 E3.14999
G1 X132.122 Y130.995 E3.15985
G1 X131.646 Y131.487 E3.18262
G1 X131.454 Y131.68 E3.19168
G1 X131.271 Y131.86 E3.20021
G1 X131.022 Y132.097 E3.21165
G1 X130.654 Y132.437 E3.22831
G1 X129.974 Y133.045 E3.25865
G1 X129.248 Y133.639 E3.28985
G1 X128.474 Y134.169 E3.32105
G1 X127.954 Y134.474 E3.3411
G1 X127.35 Y134.806 E3.36402
G1 X127.07 Y134.955 E3.37457
G1 X124.88 Y136.18 E3.45803
G1 X122.635 Y137.521 E3.54501
G1 X122.367 Y137.687 E3.5555
G1 X121.549 Y138.146 E3.58669
G1 X121.062 Y138.378 E3.60463
G1 X120.867 Y138.465 E3.61174
G1 X120.042 Y138.793 E3.64127
G1 X119.92 Y138.836 E3.64557
G1 X119.575 Y138.951 E3.65766
G1 X119.088 Y139.105 E3.67465
G1 X118.713 Y139.218 E3.68768
G1 X118.06 Y139.408 E3.7103
G1 X117.724 Y139.5 E3.72188
G1 X117.471 Y139.565 E3.73057
G1 X117.203 Y139.63 E3.73974
G1 X116.47 Y139.797 E3.76475
G1 X115.845 Y139.928 E3.78599
G1 X115.065 Y140.062 E3.81231
G1 X114.132 Y140.152 E3.84349
G1 X113.339 Y140.165 E3.86987
G1 X111.958 Y140.138 E3.91581
G1 X109.918 Y140.116 E3.98366
G1 X107.614 Y140.149 E4.0603
G1 X106.99 Y140.166 E4.08106
G1 X106.006 Y140.148 E4.1138
G1 X105.64 Y140.125 E4.12599
G1 X104.707 Y140.027 E4.1572
G1 X104.007 Y139.899 E4.18086
G1 X103.345 Y139.756 E4.20339
G1 X103.091 Y139.698 E4.21206
G1 X102.398 Y139.531 E4.23576
G1 X102.062 Y139.444 E4.24731
G1 X101.612 Y139.318 E4.26285
G1 X101.306 Y139.227 E4.27347
G1 X100.776 Y139.063 E4.29192
G1 X100.198 Y138.876 E4.31213
G1 X99.812 Y138.743 E4.32571
G1 X98.944 Y138.387 E4.35691
G1 X97.898 Y137.835 E4.39625
G1 X97.34 Y137.501 E4.41788
G1 X97.057 Y137.326 E4.42894
G1 X94.879 Y136.042 E4.51304
G1 X92.567 Y134.768 E4.60083
G1 X92.294 Y134.622 E4.61113
G1 X91.18 Y133.939 E4.65459
G1 X91.008 Y133.819 E4.66157
G1 X90.074 Y133.09 E4.70098
G1 X89.801 Y132.852 E4.71302
G1 X89.584 Y132.658 E4.7227
G1 X89.193 Y132.297 E4.7404
G1 X88.711 Y131.842 E4.76245
G1 X88.441 Y131.578 E4.77501
G1 X88.127 Y131.258 E4.78992
G1 X87.87 Y130.988 E4.80232
G1 X87.593 Y130.69 E4.81585
G1 X87.115 Y130.164 E4.83949
G1 X86.515 Y129.444 E4.87066
G1 X85.978 Y128.675 E4.90186
G1 X85.662 Y128.147 E4.92232
G1 X85.121 Y127.18 E4.95918
G1 X84.755 Y126.507 E4.98466
G1 X83.477 Y124.305 E5.06934
G1 X82.514 Y122.735 E5.1306
G1 X82.331 Y122.441 E5.14212
G1 X81.717 Y121.312 E5.18486
G1 X81.629 Y121.125 E5.19173
G1 X81.136 Y119.889 E5.23599
G1 X80.932 Y119.271 E5.25764
G1 X80.839 Y118.975 E5.26796
G1 X80.635 Y118.293 E5.29163
G1 X80.536 Y117.94 E5.30383
G1 X80.4 Y117.413 E5.32193
G1 X80.313 Y117.049 E5.33438
G1 X80.111 Y116.139 E5.36538
G1 X79.947 Y115.216 E5.39656
G1 X79.863 Y114.282 E5.42775
G1 X79.852 Y113.652 E5.44871
G1 X79.861 Y112.939 E5.47243
G1 X79.883 Y112.199 E5.49705
G1 X79.889 Y109.692 E5.58043
G1 X79.826 Y107.543 E5.65194
G1 X79.811 Y106.704 E5.67985
G1 X79.846 Y105.604 E5.71645
G1 X79.86 Y105.434 E5.72213
G1 X80.056 Y104.085 E5.76747
G1 X80.198 Y103.406 E5.79054
G1 X80.271 Y103.08 E5.80165
G1 X80.359 Y102.715 E5.81414
G1 X80.453 Y102.355 E5.82651
G1 X80.751 Y101.28 E5.86362
G1 X80.857 Y100.92 E5.8761
G1 X81.011 Y100.43 E5.89318
G1 X81.33 Y99.548 E5.92438
G1 X81.723 Y98.696 E5.95558
G1 X82.04 Y98.124 E5.97733
G1 X82.306 Y97.675 E5.99469
G1 X83.22 Y96.167 E6.05334
G1 X84.45 Y93.999 E6.13625
G1 X84.741 Y93.446 E6.15703
G1 X84.861 Y93.24 E6.16496
G1 X85.477 Y92.102 E6.208
G1 X86.109 Y91.074 E6.24813
G1 X86.224 Y90.908 E6.25485
G1 X86.939 Y89.984 E6.29371
G1 X87.222 Y89.662 E6.30797
G1 X87.497 Y89.359 E6.32158
G1 X87.688 Y89.154 E6.3309
G1 X88.029 Y88.797 E6.34732
G1 X88.285 Y88.537 E6.35945
G0 F6000 X88.565 Y88.823
G1 F1200 X89.301 Y88.102 E6.39372
G1 X89.538 Y87.877 E6.40459
G1 X89.892 Y87.551 E6.4206
G1 X90.874 Y86.75 E6.46275
G1 X90.917 Y86.719 E6.46451
G1 X91.879 Y86.101 E6.50254
G1 X92.194 Y85.923 E6.51457
G1 X94.102 Y84.875 E6.58698
G1 X97.037 Y83.135 E6.70046
G1 X97.989 Y82.548 E6.73766
G1 X99.151 Y81.927 E6.78148
G1 X99.313 Y81.853 E6.7874
G1 X100.494 Y81.397 E6.82951
G1 X101.127 Y81.195 E6.85161
G1 X101.421 Y81.106 E6.86183
G1 X101.821 Y80.991 E6.87567
G1 X102.149 Y80.902 E6.88697
G1 X103.121 Y80.656 E6.92032
G1 X103.444 Y80.58 E6.93136
G1 X103.862 Y80.488 E6.94559
G1 X104.433 Y80.378 E6.96493
G1 X105.347 Y80.266 E6.99556
G1 X106.289 Y80.235 E7.02691
G1 X106.817 Y80.241 E7.04447
G1 X108.735 Y80.289 E7.10828
G1 X112.612 Y80.252 E7.23724
G1 X113.339 Y80.23 E7.26143
G1 X114.494 Y80.258 E7.29986
G1 X114.683 Y80.273 E7.30616
G1 X115.596 Y80.386 E7.33676
G1 X116.112 Y80.485 E7.35424
G1 X116.806 Y80.637 E7.37787
G1 X117.122 Y80.712 E7.38867
G1 X117.492 Y80.805 E7.40136
G1 X117.817 Y80.892 E7.41255
G1 X118.735 Y81.154 E7.4443
G1 X119.072 Y81.256 E7.45601
G1 X119.56 Y81.413 E7.47306
G1 X120.424 Y81.733 E7.50371
G1 X121.256 Y82.127 E7.53432
G1 X121.713 Y82.382 E7.55173
G1 X122.157 Y82.646 E7.56891
G1 X123.818 Y83.667 E7.63376
G1 X126.791 Y85.361 E7.74757
G1 X127.868 Y85.949 E7.78838
G1 X128.735 Y86.478 E7.82216
G1 X128.853 Y86.558 E7.8269
G1 X129.592 Y87.108 E7.85754
G1 X130.066 Y87.516 E7.87834
G1 X130.567 Y87.975 E7.90094
G1 X130.788 Y88.184 E7.91106
G1 X131.059 Y88.447 E7.92362
G1 X131.312 Y88.701 E7.93554
G1 X132.069 Y89.487 E7.97184
G1 X132.329 Y89.767 E7.98455
G1 X132.647 Y90.122 E8.0004
G1 X133.388 Y91.048 E8.03984
G1 X134.039 Y92.08 E8.08043
G1 X134.311 Y92.572 E8.09912
G1 X135.059 Y93.97 E8.15186
G1 X136.317 Y96.165 E8.23601
G1 X136.941 Y97.184 E8.27575
G1 X137.52 Y98.154 E8.31332
G1 X137.926 Y98.901 E8.3416
G1 X137.995 Y99.041 E8.34679
G1 X138.366 Y99.884 E8.37742
G1 X138.596 Y100.538 E8.40048
G1 X138.849 Y101.34 E8.42845
G1 X138.947 Y101.669 E8.43987
G1 X139.019 Y101.926 E8.44875
G1 X139.108 Y102.266 E8.46044
G1 X139.387 Y103.406 E8.49947
G1 X139.475 Y103.798 E8.51283
G1 X139.567 Y104.247 E8.52808
G1 X139.713 Y105.156 E8.5587
G1 X139.779 Y106.075 E8.58934
G1 X139.781 Y106.591 E8.60651
G1 X139.758 Y107.675 E8.64257
G1 X139.727 Y108.569 E8.67232
G1 X139.711 Y111.098 E8.75644
G1 X139.746 Y112.652 E8.80814
G1 X139.755 Y113.444 E8.83448
G1 X139.725 Y114.377 E8.86553
G1 X139.706 Y114.624 E8.87377
G1 X139.553 Y115.776 E8.91242
G1 X139.476 Y116.156 E8.92532
G1 X139.348 Y116.734 E8.94501
G1 X139.279 Y117.027 E8.95502
G1 X139.105 Y117.719 E8.97875
G1 X139.03 Y118.002 E8.98849
G1 X138.944 Y118.308 E8.99906
G1 X138.859 Y118.594 E9.00898
G1 X138.663 Y119.217 E9.03071
G1 X138.453 Y119.848 E9.05282
G1 X138.124 Y120.708 E9.08345
G1 X137.722 Y121.537 E9.11409
G1 X137.453 Y122.007 E9.1321
G1 X137.157 Y122.494 E9.15106
G1 X136.914 Y122.879 E9.1662
G1 X135.634 Y125.018 E9.24911
G1 X134.152 Y127.682 E9.3505
G1 X134.027 Y127.901 E9.35889
G1 X133.468 Y128.777 E9.39345
G1 X133.351 Y128.942 E9.40018
G1 X132.69 Y129.781 E9.43571
G1 X132.47 Y130.029 E9.44673
G1 X132.03 Y130.509 E9.46839
G1 X131.834 Y130.716 E9.47787
G1 X131.358 Y131.208 E9.50064
G1 X131.173 Y131.395 E9.50939
G1 X130.99 Y131.575 E9.51793
G1 X130.75 Y131.804 E9.52896
G1 X130.242 Y132.271 E9.55191
G1 X129.708 Y132.747 E9.5757
G1 X128.995 Y133.329 E9.60632
G1 X128.234 Y133.847 E9.63693
G1 X127.761 Y134.123 E9.65515
G1 X126.981 Y134.55 E9.68472
G1 X126.883 Y134.602 E9.68841
G1 X124.685 Y135.831 E9.77217
G1 X122.426 Y137.181 E9.8597
G1 X122.157 Y137.347 E9.87021
G1 X121.353 Y137.796 E9.90084
G1 X120.899 Y138.012 E9.91756
G1 X120.704 Y138.099 E9.92467
G1 X119.909 Y138.416 E9.95313
G1 X119.787 Y138.459 E9.95743
G1 X119.455 Y138.57 E9.96908
G1 X118.971 Y138.722 E9.98595
G1 X118.601 Y138.834 E9.99881
G1 X117.948 Y139.024 E10.02143
G1 X117.625 Y139.113 E10.03257
G1 X117.372 Y139.178 E10.04126
G1 X117.113 Y139.241 E10.05013
G1 X116.388 Y139.406 E10.07486
G1 X115.763 Y139.537 E10.0961
G1 X115.01 Y139.666 E10.1215
G1 X114.094 Y139.753 E10.15211
G1 X113.346 Y139.765 E10.17699
G1 X111.966 Y139.738 E10.2229
G1 X109.917 Y139.716 E10.29105
G1 X107.599 Y139.749 E10.36816
G1 X106.98 Y139.766 E10.38875
G1 X106.031 Y139.749 E10.42032
G1 X105.665 Y139.726 E10.43252
G1 X104.75 Y139.629 E10.46312
G1 X104.092 Y139.508 E10.48537
G1 X103.43 Y139.365 E10.5079
G1 X103.185 Y139.309 E10.51626
G1 X102.492 Y139.142 E10.53997
G1 X102.168 Y139.059 E10.55109
G1 X101.725 Y138.935 E10.56639
G1 X101.424 Y138.845 E10.57684
G1 X100.899 Y138.682 E10.59513
G1 X100.321 Y138.495 E10.61533
G1 X99.948 Y138.367 E10.62845
G1 X99.096 Y138.017 E10.65908
G1 X98.104 Y137.492 E10.69641
G1 X97.546 Y137.158 E10.71804
G1 X97.226 Y136.961 E10.73054
G1 X95.095 Y135.705 E10.81281
G1 X92.711 Y134.391 E10.90335
G1 X92.483 Y134.269 E10.91195
G1 X91.409 Y133.611 E10.95385
G1 X91.237 Y133.491 E10.96082
G1 X90.336 Y132.788 E10.99883
G1 X90.063 Y132.55 E11.01088
G1 X89.855 Y132.364 E11.02016
G1 X89.468 Y132.006 E11.03769
G1 X88.986 Y131.551 E11.05974
G1 X88.725 Y131.297 E11.07185
G1 X88.416 Y130.982 E11.08653
G1 X88.162 Y130.715 E11.09878
G1 X87.889 Y130.421 E11.11213
G1 X87.411 Y129.895 E11.13577
G1 X86.822 Y129.187 E11.1664
G1 X86.297 Y128.431 E11.19701
G1 X86.011 Y127.951 E11.2156
G1 X85.472 Y126.989 E11.25227
G1 X85.094 Y126.294 E11.27859
G1 X83.825 Y124.107 E11.36268
G1 X82.671 Y122.229 E11.436
G1 X82.079 Y121.141 E11.47719
G1 X81.991 Y120.954 E11.48407
G1 X81.516 Y119.764 E11.52668
G1 X81.312 Y119.146 E11.54833
G1 X81.223 Y118.861 E11.55826
G1 X81.019 Y118.179 E11.58194
G1 X80.923 Y117.839 E11.59369
G1 X80.789 Y117.32 E11.61152
G1 X80.662 Y116.781 E11.62993
G1 X80.501 Y116.053 E11.65473
G1 X80.342 Y115.146 E11.68536
G1 X80.261 Y114.229 E11.71598
G1 X80.252 Y113.657 E11.735
G1 X80.261 Y112.951 E11.75849
G1 X80.283 Y112.212 E11.78308
G1 X80.289 Y109.681 E11.86726
G1 X80.226 Y107.535 E11.93867
G1 X80.211 Y106.696 E11.96658
G1 X80.245 Y105.637 E12.00182
G1 X80.259 Y105.467 E12.00749
G1 X80.447 Y104.167 E12.05118
G1 X80.589 Y103.488 E12.07425
G1 X80.66 Y103.174 E12.08496
G1 X80.748 Y102.809 E12.09745
G1 X80.838 Y102.461 E12.1094
G1 X81.136 Y101.386 E12.1465
G1 X81.239 Y101.04 E12.15851
G1 X81.393 Y100.55 E12.1756
G1 X81.707 Y99.684 E12.20623
G1 X82.094 Y98.849 E12.23684
G1 X82.384 Y98.328 E12.25668
G1 X82.648 Y97.882 E12.27391
G1 X83.567 Y96.365 E12.33291
G1 X84.808 Y94.178 E12.41654
G1 X85.095 Y93.633 E12.43703
G1 X85.209 Y93.437 E12.44457
G1 X85.829 Y92.292 E12.48788
G1 X86.438 Y91.302 E12.52653
G1 X86.553 Y91.136 E12.53325
G1 X87.242 Y90.245 E12.57071
G1 X87.518 Y89.931 E12.58462
G1 X87.793 Y89.628 E12.59823
G1 X87.977 Y89.43 E12.60722
G1 X88.318 Y89.073 E12.62364
G1 X88.565 Y88.823 E12.63533
G0 F6000 X88.845 Y89.109
G1 F1200 X89.581 Y88.388 E12.66959
G1 X89.809 Y88.171 E12.68006
G1 X90.163 Y87.845 E12.69607
G1 X91.108 Y87.074 E12.73663
G1 X91.151 Y87.043 E12.7384
G1 X92.076 Y86.449 E12.77496
G1 X92.387 Y86.274 E12.78683
G1 X94.283 Y85.232 E12.85879
G1 X97.229 Y83.487 E12.97267
G1 X98.199 Y82.888 E13.01059
G1 X99.317 Y82.291 E13.05274
G1 X99.479 Y82.217 E13.05867
G1 X100.616 Y81.778 E13.0992
G1 X101.249 Y81.576 E13.1213
G1 X101.532 Y81.49 E13.13114
G1 X101.932 Y81.375 E13.14498
G1 X102.247 Y81.29 E13.15584
G1 X103.219 Y81.044 E13.18918
G1 X103.53 Y80.97 E13.19982
G1 X103.948 Y80.878 E13.21405
G1 X104.499 Y80.773 E13.23271
G1 X105.396 Y80.664 E13.26276
G1 X106.285 Y80.635 E13.29235
G1 X106.806 Y80.641 E13.30968
G1 X108.728 Y80.689 E13.37362
G1 X112.628 Y80.652 E13.50334
G1 X113.351 Y80.63 E13.5274
G1 X114.462 Y80.657 E13.56436
G1 X114.651 Y80.672 E13.57067
G1 X115.547 Y80.783 E13.6007
G1 X116.026 Y80.876 E13.61693
G1 X116.72 Y81.028 E13.64056
G1 X117.024 Y81.1 E13.65095
G1 X117.394 Y81.193 E13.66364
G1 X117.707 Y81.277 E13.67442
G1 X118.625 Y81.539 E13.70617
G1 X118.95 Y81.637 E13.71746
G1 X119.438 Y81.794 E13.73451
G1 X120.284 Y82.109 E13.76453
G1 X121.1 Y82.497 E13.79459
G1 X121.509 Y82.726 E13.81018
G1 X121.947 Y82.987 E13.82713
G1 X123.589 Y83.996 E13.89123
G1 X126.624 Y85.725 E14.00741
G1 X127.676 Y86.3 E14.04729
G1 X128.511 Y86.809 E14.07981
G1 X128.629 Y86.889 E14.08455
G1 X129.353 Y87.429 E14.11459
G1 X129.795 Y87.811 E14.13402
G1 X130.296 Y88.27 E14.15662
G1 X130.51 Y88.471 E14.16639
G1 X130.781 Y88.734 E14.17895
G1 X131.024 Y88.978 E14.1904
G1 X131.781 Y89.764 E14.2267
G1 X132.032 Y90.034 E14.23896
G1 X132.35 Y90.389 E14.25481
G1 X133.062 Y91.28 E14.29274
G1 X133.689 Y92.274 E14.33183
G1 X134.027 Y92.888 E14.35514
G1 X134.718 Y94.178 E14.40382
