;FLAVOR:Marlin
;TIME:1373
;Filament used: 0.45123m
;Layer height: 0.12
;MINX:69.309
;MINY:87.821
;MINZ:0.12
;MAXX:150.685
;MAXY:132.18
;MAXZ:2.4
;Generated with Cura_SteamEngine 4.8.0
M140 S60
M105
M190 S60
M104 S200
M105
M109 S200
M82 ;absolute extrusion mode
; Ender 3 Custom Start G-code
G92 E0 ; Reset Extruder
G28 ; Home all axes
G1 Z2.0 F3000 ; Move Z Axis up little to prevent scratching of Heat Bed
G1 X0.1 Y20 Z0.3 F5000.0 ; Move to start position
G1 X0.1 Y200.0 Z0.3 F1500.0 E15 ; Draw the first line
G1 X0.4 Y200.0 Z0.3 F5000.0 ; Move to side a little
G1 X0.4 Y20 Z0.3 F1500.0 E30 ; Draw the second line
G92 E0 ; Reset Extruder
G1 Z2.0 F3000 ; Move Z Axis up little to prevent scratching of Heat Bed
G1 X5 Y20 Z0.3 F5000.0 ; Move over to prevent blob squish
G92 E0
G92 E0
G1 F1500 E-6.5
;LAYER_COUNT:20
;LAYER:0
M107
G0 F6000 X77.177 Y93.057 Z0.12
;TYPE:SKIRT
G1 F1500 E0
G1 F1200 X77.335 Y92.927 E0.00408
G1 X77.886 Y92.482 E0.01822
G1 X78.395 Y92.095 E0.03098
G1 X78.785 Y91.819 E0.04051
G1 X79.153 Y91.571 E0.04937
G1 X79.75 Y91.183 E0.06358
G1 X80.236 Y90.884 E0.07496
G1 X80.44 Y90.766 E0.07967
G1 X80.725 Y90.607 E0.08618
G1 X81.068 Y90.424 E0.09394
G1 X81.727 Y90.085 E0.10873
G1 X82.309 Y89.807 E0.1216
G1 X82.683 Y89.643 E0.12975
G1 X82.832 Y89.58 E0.13298
G1 X83.086 Y89.477 E0.13845
G1 X83.759 Y89.212 E0.15288
G1 X84.366 Y88.993 E0.16576
G1 X84.779 Y88.861 E0.17441
G1 X85.213 Y88.732 E0.18345
G1 X85.871 Y88.546 E0.19709
G1 X86.452 Y88.399 E0.20905
G1 X86.679 Y88.348 E0.21369
G1 X86.943 Y88.292 E0.21908
G1 X87.432 Y88.198 E0.22902
G1 X88.124 Y88.079 E0.24303
G1 X88.759 Y87.989 E0.25583
G1 X89.359 Y87.924 E0.26787
G1 X89.664 Y87.899 E0.27398
G1 X90.346 Y87.851 E0.28762
G1 X91.027 Y87.824 E0.30122
G1 X91.39 Y87.821 E0.30847
G1 X91.827 Y87.826 E0.31719
G1 X92.59 Y87.85 E0.33242
G1 X93.197 Y87.886 E0.34456
G1 X93.473 Y87.91 E0.35009
G1 X93.874 Y87.952 E0.35813
G1 X94.139 Y87.984 E0.36346
G1 X94.854 Y88.08 E0.37786
G1 X95.472 Y88.181 E0.39035
G1 X95.747 Y88.234 E0.39594
G1 X96.12 Y88.312 E0.40355
G1 X96.329 Y88.36 E0.40783
G1 X97.058 Y88.534 E0.42278
G1 X97.656 Y88.694 E0.43514
G1 X97.88 Y88.761 E0.4398
G1 X98.136 Y88.841 E0.44515
G1 X98.588 Y88.991 E0.45466
G1 X100.092 Y89.519 E0.48647
G1 X101.025 Y89.86 E0.50629
G1 X103.391 Y90.652 E0.55608
G1 X105.793 Y91.381 E0.60618
G1 X108.234 Y92.047 E0.65667
G1 X110.718 Y92.65 E0.70768
G1 X113.121 Y93.16 E0.7567
G1 X115.624 Y93.618 E0.80748
G1 X118.094 Y94 E0.85736
G1 X120.605 Y94.315 E0.90786
G1 X123.137 Y94.561 E0.95863
G1 X125.614 Y94.73 E1.00817
G1 X128.137 Y94.831 E1.05856
G1 X130.497 Y94.861 E1.10566
G1 X137.368 Y94.862 E1.24278
G1 X138.049 Y94.872 E1.25637
G1 X138.985 Y94.926 E1.27508
G1 X139.913 Y95.059 E1.29379
G1 X140.827 Y95.271 E1.31252
G1 X141.719 Y95.56 E1.33123
G1 X142.583 Y95.924 E1.34994
G1 X143.414 Y96.36 E1.36867
G1 X144.204 Y96.866 E1.38739
G1 X144.948 Y97.436 E1.40609
G1 X145.641 Y98.068 E1.42481
G1 X146.277 Y98.757 E1.44352
G1 X147.04 Y99.769 E1.46881
G1 X147.624 Y100.645 E1.48982
G1 X148.536 Y102.073 E1.52364
G1 X148.962 Y102.759 E1.53975
G1 X149.422 Y103.576 E1.55846
G1 X149.81 Y104.43 E1.57718
G1 X150.161 Y105.436 E1.59844
G1 X150.239 Y105.7 E1.60394
G1 X150.466 Y106.61 E1.62265
G1 X150.615 Y107.536 E1.64137
G1 X150.685 Y108.471 E1.66008
G1 X150.674 Y109.409 E1.6788
G1 X150.584 Y110.343 E1.69753
G1 X150.324 Y111.631 E1.72375
G1 X150.265 Y111.854 E1.72835
G1 X149.987 Y112.749 E1.74705
G1 X149.633 Y113.618 E1.76578
G1 X149.207 Y114.453 E1.78449
G1 X148.711 Y115.249 E1.8032
G1 X148.149 Y116 E1.82192
G1 X147.525 Y116.7 E1.84064
G1 X146.879 Y117.314 E1.85842
G1 X146.75 Y117.427 E1.86184
G1 X146.019 Y118.015 E1.88057
G1 X145.58 Y118.321 E1.89124
G1 X145.138 Y118.614 E1.90183
G1 X144.95 Y118.736 E1.9063
G1 X143.441 Y119.693 E1.94196
G1 X142.459 Y120.301 E1.96501
G1 X142.192 Y120.46 E1.97121
G1 X141.87 Y120.647 E1.97864
G1 X141.04 Y121.083 E1.99735
G1 X140.175 Y121.447 E2.01608
G1 X139.581 Y121.649 E2.0286
G1 X139.36 Y121.717 E2.03321
G1 X138.453 Y121.954 E2.05192
G1 X137.092 Y122.16 E2.07939
G1 X136.922 Y122.175 E2.0828
G1 X136.252 Y122.214 E2.09619
G1 X133.873 Y122.278 E2.14368
G1 X131.405 Y122.414 E2.19301
G1 X128.871 Y122.626 E2.24375
G1 X126.345 Y122.909 E2.29448
G1 X123.876 Y123.257 E2.34424
G1 X121.38 Y123.681 E2.39476
G1 X118.95 Y124.163 E2.4442
G1 X116.469 Y124.731 E2.49499
G1 X114.043 Y125.359 E2.545
G1 X111.602 Y126.064 E2.5957
G1 X109.241 Y126.82 E2.64518
G1 X106.827 Y127.668 E2.69624
G1 X104.536 Y128.546 E2.7452
G1 X102.124 Y129.549 E2.79733
G1 X100.812 Y130.134 E2.826
G1 X100.194 Y130.399 E2.83941
G1 X99.963 Y130.495 E2.84441
G1 X99.391 Y130.725 E2.85671
G1 X98.766 Y130.955 E2.87
G1 X98.4 Y131.077 E2.8777
G1 X97.987 Y131.205 E2.88633
G1 X97.267 Y131.414 E2.90129
G1 X96.701 Y131.562 E2.91296
G1 X96.401 Y131.632 E2.91911
G1 X95.878 Y131.741 E2.92977
G1 X95.046 Y131.893 E2.94665
G1 X94.428 Y131.988 E2.95913
G1 X94.155 Y132.022 E2.96462
G1 X93.867 Y132.054 E2.9704
G1 X93.452 Y132.092 E2.97872
G1 X92.799 Y132.142 E2.99179
G1 X92.172 Y132.172 E3.00431
G1 X91.649 Y132.18 E3.01475
G1 X91.485 Y132.18 E3.01803
G1 X91.207 Y132.176 E3.02357
G1 X90.535 Y132.159 E3.03699
G1 X89.95 Y132.129 E3.04868
G1 X89.645 Y132.105 E3.05478
G1 X89.251 Y132.068 E3.06268
G1 X88.998 Y132.038 E3.06776
G1 X88.286 Y131.947 E3.08209
G1 X87.707 Y131.857 E3.09378
G1 X87.156 Y131.754 E3.10497
G1 X86.749 Y131.666 E3.11328
G1 X86.078 Y131.51 E3.12703
G1 X85.493 Y131.357 E3.13909
G1 X85.208 Y131.274 E3.14502
G1 X84.789 Y131.144 E3.15377
G1 X83.916 Y130.847 E3.17217
G1 X83.344 Y130.633 E3.18436
G1 X83.058 Y130.517 E3.19052
G1 X82.625 Y130.331 E3.19993
G1 X81.869 Y129.986 E3.21651
G1 X81.294 Y129.703 E3.2293
G1 X81.086 Y129.593 E3.23399
G1 X80.679 Y129.368 E3.24327
G1 X80.453 Y129.238 E3.24848
G1 X79.821 Y128.863 E3.26314
G1 X79.31 Y128.541 E3.2752
G1 X79.022 Y128.348 E3.28211
G1 X78.621 Y128.066 E3.2919
G1 X78.017 Y127.621 E3.30687
G1 X77.508 Y127.222 E3.31978
G1 X77.199 Y126.965 E3.3278
G1 X76.865 Y126.676 E3.33661
G1 X76.314 Y126.179 E3.35142
G1 X75.844 Y125.729 E3.3644
G1 X75.652 Y125.534 E3.36986
G1 X75.454 Y125.328 E3.37557
G1 X75.177 Y125.028 E3.38372
G1 X74.736 Y124.537 E3.39689
G1 X74.333 Y124.062 E3.40932
G1 X74.08 Y123.746 E3.41739
G1 X73.788 Y123.364 E3.42699
G1 X73.339 Y122.75 E3.44217
G1 X73.014 Y122.281 E3.45356
G1 X72.889 Y122.09 E3.45811
G1 X72.719 Y121.821 E3.46446
G1 X72.503 Y121.465 E3.47277
G1 X72.143 Y120.85 E3.48699
G1 X71.797 Y120.212 E3.50148
G1 X71.639 Y119.896 E3.50853
G1 X71.496 Y119.599 E3.51511
G1 X71.17 Y118.895 E3.53059
G1 X70.911 Y118.289 E3.54374
G1 X70.77 Y117.923 E3.55157
G1 X70.658 Y117.619 E3.55803
G1 X70.556 Y117.33 E3.56415
G1 X70.349 Y116.716 E3.57708
G1 X70.172 Y116.137 E3.58916
G1 X70.092 Y115.848 E3.59515
G1 X69.989 Y115.453 E3.60329
G1 X69.789 Y114.591 E3.62095
G1 X69.653 Y113.902 E3.63497
G1 X69.58 Y113.457 E3.64396
G1 X69.519 Y113.029 E3.65259
G1 X69.43 Y112.311 E3.66703
G1 X69.369 Y111.675 E3.67978
G1 X69.342 Y111.231 E3.68866
G1 X69.332 Y111.019 E3.69289
G1 X69.323 Y110.736 E3.69854
G1 X69.309 Y110.081 E3.71162
G1 X69.312 Y109.485 E3.72351
G1 X69.321 Y109.211 E3.72898
G1 X69.345 Y108.749 E3.73821
G1 X69.358 Y108.559 E3.74202
G1 X69.415 Y107.838 E3.75645
G1 X69.483 Y107.211 E3.76903
G1 X69.527 Y106.89 E3.7755
G1 X69.597 Y106.447 E3.78445
G1 X69.739 Y105.653 E3.80055
G1 X69.885 Y104.965 E3.81458
G1 X69.972 Y104.611 E3.82186
G1 X70.092 Y104.165 E3.83107
G1 X70.313 Y103.405 E3.84687
G1 X70.504 Y102.811 E3.85932
G1 X70.683 Y102.313 E3.86988
G1 X70.837 Y101.916 E3.87838
G1 X71.093 Y101.285 E3.89197
G1 X71.336 Y100.73 E3.90406
G1 X71.451 Y100.486 E3.90944
G1 X71.588 Y100.206 E3.91566
G1 X71.76 Y99.87 E3.9232
G1 X72.077 Y99.272 E3.9367
G1 X72.367 Y98.759 E3.94846
G1 X72.522 Y98.501 E3.95447
G1 X72.72 Y98.183 E3.96194
G1 X72.856 Y97.973 E3.96694
G1 X73.242 Y97.392 E3.98086
G1 X73.589 Y96.899 E3.99289
G1 X73.745 Y96.69 E3.99809
G1 X73.926 Y96.454 E4.00403
G1 X74.187 Y96.127 E4.01238
G1 X74.629 Y95.59 E4.02626
G1 X75.02 Y95.141 E4.03814
G1 X75.211 Y94.933 E4.04377
G1 X75.425 Y94.707 E4.04998
G1 X75.723 Y94.403 E4.05848
G1 X76.192 Y93.94 E4.07163
G1 X76.654 Y93.509 E4.08424
G1 X76.887 Y93.304 E4.09043
G1 X77.177 Y93.057 E4.09804
G0 F6000 X77.341 Y93.441
G1 F1200 X77.586 Y93.239 E4.10437
G1 X78.137 Y92.794 E4.11851
G1 X78.628 Y92.42 E4.13082
G1 X79.011 Y92.149 E4.14019
G1 X79.371 Y91.906 E4.14885
G1 X79.968 Y91.518 E4.16306
G1 X80.437 Y91.23 E4.17405
G1 X80.641 Y91.112 E4.17875
G1 X80.915 Y90.959 E4.18501
G1 X81.251 Y90.78 E4.19261
G1 X81.91 Y90.441 E4.2074
G1 X82.471 Y90.173 E4.21981
G1 X82.839 Y90.012 E4.22782
G1 X83.232 Y89.849 E4.23631
G1 X83.905 Y89.584 E4.25075
G1 X84.49 Y89.373 E4.26316
G1 X84.895 Y89.244 E4.27164
G1 X85.322 Y89.117 E4.28053
G1 X85.98 Y88.931 E4.29418
G1 X86.539 Y88.789 E4.30569
G1 X86.766 Y88.738 E4.31033
G1 X87.021 Y88.684 E4.31553
G1 X87.5 Y88.592 E4.32526
G1 X88.192 Y88.473 E4.33928
G1 X88.804 Y88.386 E4.35161
G1 X89.151 Y88.347 E4.35858
G1 X89.495 Y88.314 E4.36548
G1 X89.692 Y88.298 E4.36942
G1 X90.374 Y88.25 E4.38306
G1 X91.03 Y88.224 E4.39617
G1 X91.393 Y88.221 E4.40341
G1 X91.814 Y88.226 E4.41181
G1 X92.577 Y88.25 E4.42705
G1 X93.162 Y88.285 E4.43874
G1 X93.676 Y88.332 E4.44904
G1 X94.086 Y88.38 E4.45728
G1 X94.801 Y88.476 E4.47168
G1 X95.396 Y88.574 E4.48371
G1 X95.671 Y88.627 E4.4893
G1 X96.035 Y88.703 E4.49672
G1 X96.236 Y88.749 E4.50083
G1 X96.965 Y88.923 E4.51579
G1 X97.542 Y89.078 E4.52771
G1 X97.766 Y89.145 E4.53238
G1 X98.012 Y89.222 E4.53752
G1 X98.456 Y89.369 E4.54686
G1 X99.955 Y89.895 E4.57856
G1 X100.877 Y90.232 E4.59815
G1 X103.286 Y91.038 E4.64884
G1 X105.677 Y91.764 E4.69871
G1 X108.14 Y92.436 E4.74966
G1 X110.613 Y93.036 E4.80044
G1 X113.072 Y93.558 E4.85061
G1 X115.528 Y94.008 E4.90043
G1 X118.054 Y94.398 E4.95144
G1 X120.584 Y94.716 E5.00233
G1 X123.073 Y94.957 E5.05223
G1 X125.571 Y95.128 E5.1022
G1 X128.153 Y95.231 E5.15376
G1 X130.491 Y95.261 E5.20043
G1 X137.362 Y95.262 E5.33754
G1 X138.043 Y95.272 E5.35114
G1 X138.962 Y95.326 E5.36951
G1 X139.873 Y95.459 E5.38788
G1 X140.769 Y95.67 E5.40625
G1 X141.643 Y95.959 E5.42462
G1 X142.489 Y96.322 E5.44299
G1 X143.3 Y96.757 E5.46136
G1 X144.071 Y97.261 E5.47974
G1 X144.794 Y97.831 E5.49811
G1 X145.466 Y98.46 E5.51648
G1 X146.08 Y99.146 E5.53485
G1 X146.707 Y99.991 E5.55585
G1 X147.291 Y100.867 E5.57686
G1 X147.41 Y101.05 E5.58122
G1 X148.27 Y102.401 E5.61318
G1 X148.622 Y102.969 E5.62651
G1 X149.073 Y103.772 E5.64489
G1 X149.452 Y104.611 E5.66326
G1 X149.778 Y105.55 E5.6831
G1 X149.856 Y105.814 E5.68859
G1 X150.078 Y106.707 E5.70696
G1 X150.222 Y107.616 E5.72532
G1 X150.286 Y108.535 E5.74371
G1 X150.271 Y109.455 E5.76207
G1 X150.175 Y110.371 E5.78045
G1 X149.937 Y111.528 E5.80402
G1 X149.878 Y111.751 E5.80862
G1 X149.605 Y112.63 E5.82699
G1 X149.255 Y113.482 E5.84537
G1 X148.834 Y114.3 E5.86373
G1 X148.342 Y115.079 E5.88212
G1 X147.786 Y115.812 E5.90048
G1 X147.167 Y116.494 E5.91886
G1 X146.616 Y117.013 E5.93396
G1 X146.487 Y117.126 E5.93739
G1 X145.768 Y117.702 E5.95577
G1 X145.359 Y117.988 E5.96573
G1 X144.917 Y118.281 E5.97631
G1 X144.736 Y118.398 E5.98062
G1 X143.23 Y119.352 E6.01619
G1 X142.248 Y119.96 E6.03924
G1 X141.991 Y120.114 E6.04522
G1 X141.669 Y120.301 E6.05265
G1 X140.854 Y120.729 E6.07102
G1 X140.004 Y121.084 E6.0894
G1 X139.463 Y121.266 E6.10079
G1 X139.242 Y121.334 E6.10541
G1 X138.351 Y121.567 E6.12379
G1 X137.057 Y121.762 E6.1499
G1 X136.887 Y121.777 E6.15331
G1 X136.241 Y121.814 E6.16622
G1 X133.877 Y121.878 E6.21341
G1 X131.348 Y122.017 E6.26396
G1 X128.832 Y122.227 E6.31434
G1 X126.312 Y122.51 E6.36495
G1 X123.824 Y122.861 E6.41509
G1 X121.306 Y123.288 E6.46606
G1 X118.855 Y123.774 E6.51592
G1 X116.385 Y124.34 E6.56649
G1 X113.937 Y124.974 E6.61696
G1 X111.474 Y125.685 E6.66811
G1 X109.102 Y126.444 E6.71782
G1 X106.719 Y127.281 E6.76822
G1 X104.345 Y128.192 E6.81896
G1 X102.002 Y129.166 E6.8696
G1 X100.654 Y129.766 E6.89904
G1 X100.036 Y130.031 E6.91246
G1 X99.814 Y130.124 E6.91727
G1 X99.242 Y130.354 E6.92957
G1 X98.639 Y130.575 E6.94239
G1 X98.273 Y130.697 E6.95008
G1 X97.876 Y130.821 E6.95838
G1 X97.156 Y131.03 E6.97335
G1 X96.61 Y131.173 E6.98461
G1 X96.31 Y131.243 E6.99076
G1 X95.806 Y131.347 E7.00103
G1 X94.974 Y131.499 E7.01791
G1 X94.379 Y131.591 E7.02992
G1 X94.106 Y131.625 E7.03541
G1 X93.828 Y131.656 E7.04099
G1 X93.421 Y131.693 E7.04915
G1 X92.768 Y131.743 E7.06222
G1 X92.164 Y131.772 E7.07429
G1 X91.649 Y131.78 E7.08456
G1 X91.217 Y131.777 E7.09319
G1 X90.545 Y131.76 E7.1066
G1 X89.981 Y131.73 E7.11787
G1 X89.676 Y131.706 E7.12398
G1 X89.293 Y131.67 E7.13165
G1 X89.049 Y131.641 E7.13656
G1 X88.337 Y131.55 E7.15088
G1 X87.779 Y131.464 E7.16215
G1 X87.483 Y131.41 E7.16815
G1 X87.092 Y131.332 E7.17611
G1 X86.84 Y131.277 E7.18126
G1 X86.169 Y131.121 E7.195
G1 X85.605 Y130.973 E7.20664
G1 X85.32 Y130.89 E7.21256
G1 X84.911 Y130.763 E7.22111
G1 X84.718 Y130.699 E7.22517
G1 X84.046 Y130.469 E7.23934
G1 X83.494 Y130.263 E7.2511
G1 X83.208 Y130.147 E7.25726
G1 X82.791 Y129.967 E7.26632
G1 X82.035 Y129.622 E7.28291
G1 X81.481 Y129.349 E7.29523
G1 X81.037 Y129.111 E7.30529
G1 X80.657 Y128.894 E7.31402
G1 X80.025 Y128.519 E7.32868
G1 X79.533 Y128.209 E7.34029
G1 X79.245 Y128.016 E7.34721
G1 X78.859 Y127.744 E7.35663
G1 X78.255 Y127.299 E7.3716
G1 X77.764 Y126.915 E7.38404
G1 X77.455 Y126.658 E7.39206
G1 X77.133 Y126.379 E7.40056
G1 X76.582 Y125.882 E7.41537
G1 X76.129 Y125.448 E7.42789
G1 X75.746 Y125.055 E7.43884
G1 X75.475 Y124.761 E7.44682
G1 X75.034 Y124.27 E7.45999
G1 X74.645 Y123.812 E7.47198
G1 X74.392 Y123.496 E7.48006
G1 X74.111 Y123.128 E7.4893
G1 X73.662 Y122.514 E7.50448
G1 X73.349 Y122.062 E7.51545
G1 X73.224 Y121.871 E7.52001
G1 X73.06 Y121.612 E7.52613
G1 X72.848 Y121.263 E7.53428
G1 X72.488 Y120.648 E7.5485
G1 X72.155 Y120.033 E7.56245
G1 X71.997 Y119.717 E7.5695
G1 X71.859 Y119.431 E7.57584
G1 X71.533 Y118.727 E7.59132
G1 X71.284 Y118.143 E7.60399
G1 X71.146 Y117.784 E7.61167
G1 X71.034 Y117.48 E7.61813
G1 X70.935 Y117.202 E7.62402
G1 X70.728 Y116.588 E7.63695
G1 X70.557 Y116.03 E7.6486
G1 X70.477 Y115.741 E7.65458
G1 X70.377 Y115.356 E7.66252
G1 X70.179 Y114.501 E7.68004
G1 X70.048 Y113.837 E7.69354
G1 X69.975 Y113.392 E7.70254
G1 X69.916 Y112.98 E7.71085
G1 X69.827 Y112.262 E7.72528
G1 X69.769 Y111.649 E7.73757
G1 X69.742 Y111.212 E7.74631
G1 X69.722 Y110.728 E7.75598
G1 X69.708 Y110.073 E7.76905
G1 X69.712 Y109.498 E7.78053
G1 X69.721 Y109.224 E7.786
G1 X69.735 Y108.92 E7.79207
G1 X69.757 Y108.591 E7.79865
G1 X69.814 Y107.87 E7.81308
G1 X69.879 Y107.266 E7.82521
G1 X69.923 Y106.945 E7.83167
G1 X69.991 Y106.518 E7.8403
G1 X70.133 Y105.724 E7.8564
G1 X70.273 Y105.06 E7.86994
G1 X70.36 Y104.706 E7.87721
G1 X70.476 Y104.276 E7.8861
G1 X70.697 Y103.516 E7.9019
G1 X70.881 Y102.944 E7.91389
G1 X70.969 Y102.695 E7.91916
G1 X71.124 Y102.28 E7.928
G1 X71.208 Y102.066 E7.93259
G1 X71.464 Y101.435 E7.94618
G1 X71.698 Y100.901 E7.95781
G1 X71.813 Y100.657 E7.96319
G1 X71.945 Y100.386 E7.96921
G1 X72.114 Y100.057 E7.97659
G1 X72.431 Y99.459 E7.9901
G1 X72.71 Y98.965 E8.00142
G1 X72.991 Y98.502 E8.01223
G1 X73.189 Y98.194 E8.01953
G1 X73.575 Y97.613 E8.03345
G1 X73.909 Y97.139 E8.04503
G1 X74.065 Y96.93 E8.05023
G1 X74.24 Y96.702 E8.05597
G1 X74.496 Y96.382 E8.06414
G1 X74.938 Y95.845 E8.07802
G1 X75.314 Y95.412 E8.08947
G1 X75.505 Y95.204 E8.0951
G1 X75.711 Y94.985 E8.1011
G1 X76.004 Y94.688 E8.10943
G1 X76.473 Y94.225 E8.12258
G1 X76.918 Y93.81 E8.13472
G1 X77.341 Y93.441 E8.14593
G0 F6000 X77.691 Y93.67
G1 F1200 X78.388 Y93.105 E8.16383
G1 X78.861 Y92.745 E8.17569
G1 X79.237 Y92.479 E8.18488
G1 X79.589 Y92.242 E8.19335
G1 X80.186 Y91.854 E8.20756
G1 X80.637 Y91.577 E8.21812
G1 X80.841 Y91.459 E8.22283
G1 X81.105 Y91.311 E8.22887
G1 X81.434 Y91.136 E8.2363
G1 X82.093 Y90.797 E8.25109
G1 X82.633 Y90.539 E8.26304
G1 X82.995 Y90.38 E8.27093
G1 X83.379 Y90.221 E8.27922
G1 X84.052 Y89.956 E8.29365
G1 X84.615 Y89.754 E8.30559
G1 X85.011 Y89.627 E8.31389
G1 X85.43 Y89.502 E8.32262
G1 X86.088 Y89.316 E8.33626
G1 X86.627 Y89.179 E8.34736
G1 X86.854 Y89.128 E8.352
G1 X87.099 Y89.076 E8.357
